X:1
T:Qual mesto gemito
T:Grande Fantasie
T:sur l'Opera Semiramide
T:Sigismund Thalberg Op. 51
C:Sigismund Thalberg Op. 51
%%score { ( 1 3 ) | ( 2 4 ) }
L:1/8
Q:1/4=60
M:2/4
K:F#
V:1 treble nm="Piano" snm="Pno."
V:3 treble 
V:2 bass 
V:4 bass 
V:1
!pp!"^Allegretto moderato" z4 |!p! z2[I:staff +1] [C,F,A,]2 | [E,G,C]2 [B,,E,G,]>[C,E,A,] | %3
 [A,,C,F,]2 [G,,C,E,]2 | [F,,B,,D,]2 ([G,,B,,E,]>[E,,B,,C,] | [A,,C,F,]2 [C,F,A,]2 | %6
 [=E,F,C]2 [D,F,^B,]>[=D,F,=B,]) | [C,F,A,]2 [D,^^G,^B,]2 | %8
[Q:1/4=50] ([C,E,A,C]2[Q:1/4=30] [F,^B,E]>[Q:1/4=50]D |[Q:1/4=60] [E,G,C]2 [C,F,A,]2 | %10
 [E,G,C]2) ([B,,E,G,]>[C,E,A,] | [A,,C,F,]2 [G,,C,E,]2 | [F,,B,,D,]2 [G,,B,,E,]>[E,,B,,C,]) | %13
 [A,,C,F,]2 ([C,F,A,]2 | [=E,F,C]2 [D,F,^B,]>[=D,F,=B,] | [C,F,A,]2 [^^C,G,A,]2 | %16
[Q:1/4=50] [F,A,C]2[Q:1/4=30] [E,G,D]>[Q:1/4=50]C |[Q:1/4=30] [F,CF]2)[Q:1/4=50][I:staff -1] z2 | %18
 z2 c2 | c2[Q:1/4=80]!pp!!<(! (6:4:6(E/[B=d]/c/e/[b=d']/c'/) | %20
!8va(! (6:4:6(e'/!<)!!ff![b'd'']/!>(!c''/!8va)!e/[bd']/)c'/ (6:4:6(e/[Bd]/c/E/!>)!!mp!!fermata![Ba]/)[Q:1/4=50]g/ | %21
[Q:1/4=60]!pp! [Ff]2 z2 |!p! z2 ([CFA]2 | [EGc]2 [B,EG]>[CEA]) | ([A,CF]2 [G,CE]2 | %25
[I:staff +1] [F,B,D]2 [G,B,E]>[E,B,C]) |[I:staff -1] ([A,CF]2 [CFA]2 | [=EFc]2 [DF^B]>[=DF=B] | %28
 [CFA]2 [D^^G^B]2) |[Q:1/4=50] ([CEAc]2[Q:1/4=30] [F^Be]>[Q:1/4=50]d |[Q:1/4=60] [EGc]2 [CFA]2) | %31
 ([EGc]2 [B,EG]>[CEA] | [A,CF]2 [G,CE]2 |[I:staff +1] [F,B,D]2 [G,B,E]>[E,B,C]) | %34
[I:staff -1] [A,CF]2 [CFA]2 | [=EFc]2 [DF^B]>[=DF=B] | A4- | %37
[Q:1/4=50] (A2[Q:1/4=30] d>[Q:1/4=50]c | [Ff]2) z2 | z2!pp! (c2 | f2 e>d | c2) A2 | d2 c>B | %43
 [FA]2 [CFA]2 |!p! [B,EG]2 [A,CF]2 |[I:staff +1] [G,CE]2 [F,A,D]2 | [F,=A,^B,]3 [F,A,C] | %47
"_cresc." [F,=A,D]2 [G,=DE]2 | [F,CF]2 [^^F,C^^F]2 | %49
!f! [G,CG]2!>(![I:staff -1]{/^B} [^B,FA]>G!>)! |!mf! [CEc] z!p![Q:1/4=60] !^!c2- | c2 !^!=d2- | %52
 de^dc- | cfcA | G z !^!c2- | c2 !^!=d2- | de^dc- | cfcA | G z !^!c2- |!<(! c2 !^!a2-!<)! | %60
!mf! a2 !^!g2- |!>(! gfed-!>)! |!mp! d2 !^!c2- |!<(! c>^B !^!d2- | d>!<)!!f!c!>(! !^!e2- | %65
 ed!>)!!mp!^ba | gecA | EF^^FA | GFdc | ^BAdG | [CEc] z!p! !^!c2- | c2 !^!=d2- | de^dc- | cfcA | %74
 G z !^!c2- | c2 !^!=d2- | de^dc- | cfcA | G z"_cresc." !^!c2- | c2 !^!=e2- | e2 !^!=g2 | %81
 [=GAc=e=g] z !^![cc']2- | [cc'] z[Q:1/4=140]!ff! e'/c'/a/=g/ | =e/c/A/=G/ =E/C/A,/=G,/ | %84
[Q:1/4=60][I:staff +1] [=E,A,]4- | [E,A,]4 | %86
!p![Q:1/4=40] [E,B,][I:staff -1] !fermata!z!ff![Q:1/4=140] e'/c'/a/=g/ | =e/c/A/=G/ =E/C/A,/=G,/ | %88
[Q:1/4=60][I:staff +1] [=E,A,]4- | [E,A,]4 |!p! [E,B,][I:staff -1] z z2 |[I:staff +1] [E,G,]4- | %92
 [E,G,]A,G,D | [F,C]4- | [F,C]DCF |[Q:1/4=40] [B,CE]4- | [B,CE][I:staff -1]FEc | %97
[Q:1/4=60] !fermata!z4 ||[M:9/8][Q:1/4=92]"^Andante cantabile"[Q:1/4=62]!p! (c3 c2 c{/e} d2 c) | %99
 (c3 f3 f2 g) | (f3 e3) g2 a | (g3 f3) f3 | (f6 g3) | (a3- a2- a/>g/ f3) | (c'2 d' c'afcg-g/>a/) | %105
 f6- f3 | ([Cc]3 c2 c{/e} d2 c) | (c3 f3 f2 g) |"_cresc." (f3 e3) g2 a | (g3 ^^f3 d2 d) | %110
 (b3 b2 b a2 g | f3 fed) c-(c/4^B/4c/4B/4^^A/4B/4f/4B/4) | %112
 (d-d/c/g/f/) (=e-e/d/b/a/)[Q:1/4=60] (^^f/4g/4e'/4d'/4[Q:1/4=50]^b/4c'/4)(^^d/4^e/4[Q:1/4=40]^B/4c/4[Q:1/4=20]a/4)g/4 | %113
[Q:1/4=62] f6- f3 | f6 =g3 | (=a3 b2- b/>a/ =g3) | (f3 f3) =g3 | (=a3 b2- b/>a/ =g2) f | %118
 (f3 e z/ e/ f/4e/4^^d/4e/4 g2 f) | (e2 d cBA G^Fd) | %120
!p! ([A,Fc]>!>(![Ad][Fc]/[Ad]/) ([Fc]/[Af]/[Fc]/[Ad]/!>)!!pp![=Ec]/[A=g]/) ([^Ec]/[A^g]/[Ec]/[Ba]/[Ec]/[Bg]/) | %121
 f6- f3 | %122
!ff![Q:1/4=90] [cc']/[cc']/[cc']/ z/!p!!mf! .[Gc] !>!.!^![=Ad].[Gc]!>!.!^![^Bf] .[ce].[Ad].[Gc] | %123
 [F^B]!p! (^^c'/4d'/4e'/4d'/4) (^b/4^c'/4d'/4c'/4) (^^a/4b/4c'/4b/4) (^^g/4^a/4b/4a/4) (^^f/4^g/4a/4g/4) (e/4^f/4g/4f/4) (^^d/4e/4f/4e/4) (^^c/4^d/4e/4d/4) | %124
!ff!!8va(! [c'c'']/[c'c'']/[c'c'']/!8va)! z/!p!!mf! .[Gc] !>!.!^![=Ad].[Gc]!>!.!^![^Bf] .[ce].[Ad].[Gc] | %125
 [F^B]!p! (^^c'/4d'/4e'/4d'/4) (^b/4^c'/4d'/4c'/4) (^^a/4b/4c'/4b/4) (^^g/4^a/4b/4a/4) (^^f/4^g/4a/4g/4) (e/4^f/4g/4f/4) (^^d/4e/4f/4e/4) (^^c/4^d/4e/4d/4) | %126
!ff! [cc']/[cc']/[cc'][EGc] [cc']/[cc']/[cc'][EGc] [^B^b]/[Bb]/[Bb][F=AB] | %127
!f! [cc']/[cc']/[cc'][EGc] [cc']/[cc']/[cc'][EGc] [^B^b]/[Bb]/[Bb][F=AB] | %128
!p!"_cresc." [cc']/[cc']/[cc'][EGc] [cc']/[cc']/[cc'][EGc]!mf!"_cresc." [^^c^^c']/[cc']/[cc'][EA] | %129
 [dd']/[dd']/[dd'][FB]!ff! [=e=e']/[ee']/[ee'][GB] [^e^e']/[ee']/[Q:1/4=60][ee'][Q:1/4=40][EBc] | %130
[Q:1/4=80] z2 z[Q:1/4=60]{/^Bcd} Tc6- | c6- c3- | c6[Q:1/4=40] d2- d/[Q:1/4=5]c/ | %133
!p![Q:1/4=62] c3 c3 d2 c | c3 f3 f2 g | f3 e3 g2 a | g3 f3 f3 | f3"_cresc." f3 g3 | %138
!f! a3 x x"_dim." g f3 |!p! f3 fefgag |!pp! f3 z3 z3 |!p! f6 =g3 |!f! =a3 b2 a"_dim." =g3 | %143
!p! f6 =g3 |!f! =a3 b2 a"_dim." =g3 | %145
!p! e/4=d'/4e/4B/4e/4d'/4e/4B/4e/4d'/4e/4B/4e/4d'/4e/4B/4e/4c'/4e/4B/4e/4^b/4e/4B/4e/4^d'/4e/4B/4e/4c'/4e/4B/4e/4=b/4e/4B/4 | %146
 efg f3 c2 ^^c | d6 c3 | %148
!p!!<(! (c/4f/4c/4A/4c/4f/4f/4a/4f'/4f'/4!8va(!c''/4!<)!!f!f''/4!>(!c''/4f'/4f'/4!8va)!c'/4f/4f/4c/4F/4!>)!!p!c/4f/4c/4F/4c/4f/4c/4F/4c/4a/4c/4F/4c/4g/4c/4)F/4 | %149
 (c/4g/4c/4G/4c/4f/4c/4F/4c/4f/4!<(!f/4c'/4f'/4!8va(!f'/4c''/4f''/4c''/4f'/4!8va)!f'/4c'/4f/4f/4c/4!<)!!f!F/4!>(!=d/4f/4d/4F/4d/4=a/4d/4=A/4!>)!!p!c/4g/4c/4)A/4 | %150
 (c/4g/4c/4G/4c/4f/4c/4F/4c/4f/4f/4c'/4f'/4!8va(!f'/4c''/4f''/4c''/4f'/4!8va)!f'/4c'/4f/4f/4c/4F/4c/4f/4f/4c'/4f'/4c'/4f/4f/4c/4F/4F/4)C/4 | %151
!pp! F,/4C/4F/4F/4c/4f/4c/4F/4F/4C/4[Q:1/4=60]F,/4C/4F/4F/4c/4f/4c/4F/4F/4C/4[Q:1/4=50]F,/4C/4F/4F/4c/4[Q:1/4=40]f/4c/4F/4F/4C/4[Q:1/4=30]F,/4C/4F/4F/4c/4[Q:1/4=10]f/4 || %152
[K:A][M:4/4][Q:1/4=118]"^Allegro moderato"!p![Q:1/4=80] (6:4:6z/ (F/G/A/G/F/)!p! (6:4:6z/ (f/g/a/g/f/)!p! (6:4:6z/ (f'/g'/a'/g'/f'/)!p! (6:4:6z/ (f/g/a/g/f/) | %153
!p! (6:4:6z/ (G/A/B/A/G/)!p! (6:4:6z/ (g/a/b/a/g/)!p!!8va(! (6:4:6z/ (g'/a'/b'/a'/g'/)!8va)!!p! (6:4:6z/ (g/a/b/a/g/) | %154
 (6:4:6z/ (^E/F/G/F/E/) (6:4:6z/ (^e/f/g/f/e/) (6:4:6z/ (^e'/f'/g'/f'/e'/) (6:4:6z/ (e/f/g/f/e/) | %155
 (6:4:6z/ (F/G/A/G/F/) (6:4:6z/ (f/g/a/g/f/) (6:4:6z/ (f'/g'/a'/g'/f'/) (6:4:6z/ (f/g/a/g/f/) | %156
 (6:4:6z/ (F/G/A/G/F/) (6:4:6z/ (f/g/a/g/f/) (6:4:6z/ (f'/g'/a'/g'/f'/) (6:4:6z/ (f/g/a/g/f/) | %157
 (6:4:6z/ (D/E/F/E/D/) (6:4:6z/ (d/e/f/e/d/)!8va(! (6:4:6z/ (d'/e'/f'/e'/d'/) (6:4:6z/ (d''/e''/f''/e''/d''/)!8va)! | %158
 (6:4:6z/ (^d'/^e'/f'/e'/d'/) (6:4:6z/ (^d/^e/f/e/d/) (6:4:6z/ (^D/^E/F/E/)D/ (6:4:6z/ (d/e/f/e/d/) | %159
!f! (6:4:6z/ (c'/^d'/^e'/d'/c'/)!8va(! (6:4:6z/ (c''/^d''/^e''/d''/c''/)!8va)! (6:4:6z/ (c'/=d'/=e'/d'/c'/) (6:4:6z/ (c/d/e/d/c/) | %160
"_dim." (6:4:6z/ (C/D/E/D/C/) (6:4:6z/ (c/d/e/d/c/) (6:4:6z/ (c'/d'/e'/d'/c'/)!8va(! (6:4:6z/ (c''/d''/e''/d''/c''/)!8va)! | %161
 (6:4:6z/ (c'/d'/e'/d'/c'/) (6:4:6z/ (c/d/e/d/c/) (6:4:6z/ (C/D/E/D/C/) (6:4:6z/ (c/d/e/d/c/) | %162
 (6:4:6z/ (c'/d'/e'/d'/c'/)!8va(! (6:4:6z/ (c''/d''/e''/d''/c''/)!8va)! (6:4:6z/ (c'/d'/e'/d'/c'/) (6:4:6z/ (c/d/e/d/c/) | %163
!pp! z4[Q:1/4=60] z2 (6:4:6z/ C/D/E/D/C/ | %164
[Q:1/4=40][I:staff +1] C,2[I:staff -1] (6:4:6z/[I:staff +1] C,/D,/E,/D,/C,/[Q:1/4=20] [^E,B,]4[Q:1/4=5] | %165
[Q:1/4=52]"^Piu Lento"[Q:1/4=54][I:staff -1] z8 | z8 | z8 | z8 |!p! z8 | z8 | z8 | z8 |!f! z8 | %174
!ff! z8 | z8 | z8 | z8 |!pp! z8 | z8 | z8 | z4 z z/"^Both hands" C<FG/ | %182
!pp! !>!A7/2 !>!G/ !>!F>!>!C!>!F-F/>!>!G/ |!mp! !>!A7/2 !>!G/ !>!F>!>!F!>!A-A/>!>!B/ | %184
!mf! !>![Cc]7/2 !>!B/4=A/4 !>!G>!>!B!>!A-A/>!>!G/ |!mp! !>!A7/2 !>!c/ !>!F>!>!C!>!F-F/>!>!G/ | %186
!mp! !>!A7/2 !>!G/ !>!F>!>!F!>!A-A/>!>!B/ | %187
!mf! !>![Cc]7/2 !>!G/ !>!E>!>![Cc]!>![Ee][Ee]/>!>![xc]/ | %188
 !>![G,G]4-[Q:1/4=20] [G,G]2[Q:1/4=30] x2[Q:1/4=40] | %189
[Q:1/4=52] !>!c''/4E/4G/4^d/4c/4e/4g/4^d'/4c'/4!8va(!e'/4g'/4^d''/4c''/4e''/4c''/4g'/4!8va)!e'/4c'/4g/4e'/4c'/4g/4e/4c/4 !>!c>!>![Cc] | %190
!mf! !>![Ee]7/2 !>!d/4c/4 !>!B-B/>!>!B/ !>!^A>!>!B | !>!d3 !>!c/!>!B/ !>!A-A/>!>!A/ !>!G>!>!A | %192
 !>!c7/2 !>!B/4A/4 !>!G-G/>!>!G/ !>!^^F>!>!G | !>!B3 !>!A/!>!G/ !>!F-F/>!>!x/ !>!^E>!>!F | %194
 !>![G,G] x x2 x4 | !>![A,A] x x2 x4 | %196
!ff! [^D^d][F,F]!8va(! !^![^b^b']2- [bb'](20:16:20a'3/16f'3/16^d'3/16b3/16!8va)!a3/16f3/16d3/16^B3/16A3/16F3/16D3/16^B,3/16[I:staff +1]A,3/16F,3/16^D,3/16=C,3/16A,,3/16F,,3/16^D,,3/16^B,,,3/16 | %197
!ff![I:staff -1] z4 z!ff! z/ [cac']<[cac'][cac']/ | [dbd']7/2 [cac']/ [Bgb]2 z2 | %199
!ff![I:staff +1] [C,C]4[I:staff -1] z!ff! z/ [Bfb]<[Bfb][Bfb]/ | [cac']7/2 [Bgb]/ [Afa]2 z2 | %201
!ff![I:staff +1] [C,C]4[I:staff -1] z!ff! z/ [Afa]<[Afa][Afa]/ | [Bgb]7/2 [Afa]/ [G^eg]2 z2 | %203
!p![Q:1/4=40] [GB]7/2 [FA]/[Q:1/4=30] [^EG][Q:1/4=5] z/[Q:1/4=52] [C,C]<[F,F][G,G]/ || %204
[K:F#]!pp![I:staff +1] !>![A,A]7/2 !>![G,G]/ !>![F,F]>!>![C,C]!>![F,F]>!>![G,G] | %205
!pp! !>![A,A]7/2 !>![G,G]/ !>![F,F]>!>![F,F][I:staff -1]!>![A,A]>!>![B,B] | %206
 !>![Cc]7/2 !>![B,B]/4!>![A,A]/4 !>![G,G]>!>![B,B]!>![A,A]>!>![G,G] | %207
[I:staff +1] !>![A,A]7/2 !>![G,G]/ !>![F,F]>[I:staff -1]!>![A,A]!>![B,B]>!>![Cc] | %208
 !>![=E=e]4 !>![Dd]>[I:staff +1]!>![^^F,^^F]!>![G,G]>!>![A,A] | %209
[I:staff -1] !>![Cc]4 !>![B,B]>!>![B,B]!>![A,A]>!>![B,B] | %210
 !>![Dd]4 !>![Cc]>[I:staff +1]!>![E,E]!>![F,F]>!>![G,G] | %211
[I:staff -1] !>![B,B]4 !>![A,A]2 !>![A,A]>!>![A,A] | %212
!p! !>![G,G]4- [G,G][I:staff +1]!>![E,E]!>![D,D]!>![C,C] | %213
[I:staff -1] !>![Cc]2- [Cc]/!>![A,A]/!>![B,B]/!>![G,G]/ !>![F,F]3 !>![^^F,^^F] | %214
!p! !>![G,G]4- [G,G][I:staff +1]!>![E,E]!>![D,D]!>![C,C] | %215
[I:staff -1] !>![Cc]4 [B,B][A,A][G,G][Dd] | %216
 [Dd][F,F]!8va(! ([a'f'']/4[g'e'']/4[f'd'']/4)[e'c'']/4[d'b']/4[c'a']/4[bg']/4[af']/4!8va)![Q:1/4=40] ([ge']/4[fd']/4[ec']/4[db]/4[ca]/4[Bg]/4[Af]/4[Ge]/4[Q:1/4=30] [Fd]/4[Ec]/4[^^D^B]/4[Ec]/4[Fd]/4[Ec]/4[Q:1/4=5][ca]/4>g/4) | %217
!pp![Q:1/4=45] !>![FAf]2 z2 z2 !>![^^F,^^F]2 | !>![G,G]4- [G,G][I:staff +1]!>!E!>!D!>!C | %219
!pp![I:staff -1] !>![Cc]2- [Cc]/!>![A,A]/!>![B,B]/!>![G,G]/ !>![F,F]3 !>![^^F,^^F] | %220
 !>![G,G]4- [G,G][I:staff +1]!>!E!>!D!>!C | %221
!mp!!<(![I:staff -1] !>![Cc]4!<)!!f! [B,B]!>![A,A]!>![G,G]!>![Dd] | %222
 !>![Dd]/!>![F,F]/!mf![Q:1/4=45]!8va(!!>(! ([f'f'']/8d''/8c''/8a'/8)!8va)!(f'/8d'/8c'/8a/8) (b/8^b/8d'/8c'/8a/8f/8c/8^B/8d/8c/8A/8F/8D/8C/8A,/8F,/8)!>)!!p![I:staff +1] [E,E]/4[F,F]/4[^^F,^^F]/4[G,G]/4[=G,=G]/4[^G,^G]/4[I:staff -1][B,=B]/4[Cc]/4[Q:1/4=30] ([=D=d]/4[Cc]/4[^D^d]/4[Cc]/4[Dd]/4[Cc]/4[Q:1/4=5][Aa]/4>[Gg]/4) | %223
[Q:1/4=52]!mf! [Af] !^![ff']2 !^![ff']2 !^![ff']-[ff']/8f'/8c'/8a/8f/8d/8c/8A/8F/8D/8C/8A,/8[I:staff +1]F,/8D,/8C,/8A,,/8 | %224
!f! A,,[I:staff -1] !^![aa']2 !^![aa']2 !^![aa']-[aa']/8g'/8f'/8e'/8c'/8a/8g/8f/8c/8A/8F/8C/8[I:staff +1]A,/8G,/8F,/8C,/8 | %225
 A,,[I:staff -1] [ff']2- (6:4:6[ff']3/2[ff']/f/4f'/4f/4f'/4!>(! (6:4:6f/4f'/4f/4f'/4f/4f'/4 (6:4:6f/4f'/4f/4f'/4f/4f'/4 (6:4:6f/4f'/4f/4f'/4f/4f'/4!>)! | %226
!pp![Q:1/4=46] f/4f'/4f/4f'/4f/4f'/4f/4f'/4f/4f'/4f/4f'/4f/4f'/4f/4f'/4 f/4f'/4f/4f'/4f/4f'/4f/4f'/4f/4f'/4f/4f'/4f/4f'/4f/4f'/4 | %227
!8va(! (29:32:26!fermata![f'f'']-"^glissando"[Q:1/4=90]([f'f'']/4[d'd'']/4[c'c'']/4[aa']/4!8va)![gg']/4[ff']/4[dd']/4[cc']/4[Aa]/4[Gg]/4[Ff]/4[Dd]/4[Cc]/4[A,A]/4[I:staff +1][G,G]/4[F,F]/4[D,D]/4[C,C]/4[A,,A,]/4[G,,G,]/4[F,,F,]/4[D,,D,]/4[C,,C,]/4[A,,,A,,]/4[G,,,G,,]/4) | %228
[Q:1/4=30][I:staff -1] z[I:staff +1] !arpeggio![C,F,A,CF][I:staff -1]!arpeggio![CFAcf]!arpeggio![cfac'f']!8va(! !arpeggio![c'f'a'c''f'']!8va)! z !fermata!z2 || %229
[M:3/4][Q:1/4=172]"^Allegretto Vivace"[Q:1/4=140]!p!!8va(! .[f'a'c''].[f'a'c''].[f'a'c''].[f'a'c''].[f'a'c''].[f'a'c''] | %230
 .[f'a'd''].[f'a'c''].[d'f'a'].[c'f'a'].[ad'f'].[ac'f'] | %231
 .[c'e'a'].[c'e'g'].[gc'f'].[gc'e'].[egd'].[egc']!8va)! | %232
 .[g^be'].[gbd'].[dgc'].[dgb].[^Bda].[Bdg] | .[Bea].[Beg].[GBf].[GBe].[EBd].[EBc] | %234
 c3 B/A/ .GA/G/ | .FG/F/ .EF/G/ .^^CD/E/ | %236
!f! .[_G,_B,_E]!pp!!8va(! .[_e'_g'_b'].[e'g'b'].[e'g'b'].[e'g'b'].[e'g'b'] | %237
 .[_e'_g'_c''].[e'g'_b'].[_c'e'_a'].[_b_e'g'].[_gc'e'].[_gbe'] | %238
 .[_b_d'_g'].[bd'=f']!8va)!.[=f_b_e'].[f_b_d'].[_df=c'].[dfb] | %239
 .[=f_a_d'].[fa=c'].[=cf_b].[cfa].[_Ac=g].[Acf] | .[=c_e_a].[ce=g].[=Gc=f].[Gce].[_EG=d].[EGc] | %241
 =d3 =c/_B/ .=AB/A/ | .=G=A/_B/ .AB/=c/ .FG/A/ |!f! .[_B,=D=G]!p!.[DG_B].[DGB].[DGB].[DGB].[DGB] | %244
 !/!.[=D=G_B]6 | !/!.[=E=G_Bc]6 | !/!.[=E=G_Bc]6 |"_cresc." !/!.[=E=GAc=e]6 | !/!.[=E=GAc=e]6 | %249
 !/!.[=EGB=d=e]6 | !/!.[=EGB=d=e]6 ||[K:C]!ff! [Acea]!mp! .A.B.c.d.e | (f/g/f/e/ d) z z2 | %253
 e'/e'/e'/e'/ .e'.d'.b.c' |{/c'b} a .[EA].[EA].[EA].[EA].[EA] | .[EA].[EA].[EA].[EA].[EA] [E^GBe] | %256
 [Acea]!mp! .A.B.c.d.e | (f/g/f/e/ d) z z2 | e'/e'/e'/e'/ .e'.d'.b.c' |{/c'b} a z !^![FGBdg]4 | %260
 !arpeggio![Gcegc']!p! .[Gc].[Gc].[Gc].[Gc].[Gc] | .[Gc].[Gc].[Gc].[Gc].[Gc] [GBdg] | %262
 [cegc']!mp! .c.d.e.f.g | (a/b/a/g/ f) z z2 | g'/g'/g'/g'/ .g'.f'.d'.e' | %265
{/e'd'} c' .[Gc].[Gc].[Gc].[Gc].[Gc] | .[Gc].[Gc].[Gc].[Gc].[Gc] [GBdg] | [cegc']!mp! .c.d.e.f.g | %268
 (a/b/a/g/ f) z z2 | g'/g'/g'/g'/ .g'.f'.d'.e' |{/e'd'} c' z !^![DE^GBe]4 | %271
 !arpeggio![EAcea]!p! .[EA].[EA].[EA].[EA].[EA] | .[EA].[EA].[EA].[EA].[EA] [E^GBe] | %273
 [Acea]!mp! A/A/B/B/c/c/d/d/e/e/ | (5:4:5(f/g/f/e/d/) (5:4:5(f'/g'/f'/e'/d'/)!8va(! f''!8va)! z | %275
[Q:1/4=120] (6:4:6E/E/E/E/e/e/ (6:4:6e/e/e'/e'/e'/e'/[Q:1/4=140]!8va(! e''(3d''/b'/c''/!8va)! | %276
 a' .[EA].[EA].[EA].[EA].[EA] | .[EA].[EA].[EA].[EA][Q:1/4=100].[EA] [E^GBe][Q:1/4=140] | %278
 [Acea]!mp! A/A/B/B/c/c/d/d/e/e/ | (5:4:5(f/g/f/e/d/) (5:4:5(f'/g'/f'/e'/d'/)!8va(! f''!8va)! z | %280
[Q:1/4=120] (6:4:6E/E/E/E/e/e/ (6:4:6e/e/e'/e'/e'/e'/[Q:1/4=140]!8va(! e''(3d''/b'/c''/ | %281
 a'!8va)! z[Q:1/4=50] !^![FGBdg][Q:1/4=100](17:12:17(G/4A/4B/4c/4d/4e/4f/4g/4a/4b/4c'/4d'/4e'/4f'/4g'/4a'/4b'/4) | %282
[Q:1/4=140] c''!p! .[Gc].[Gc].[Gc].[Gc].[Gc] | .[Gc].[Gc].[Gc].[Gc].[Gc] [GBdg] | %284
 [cegc']!mp! c/c/d/d/e/e/f/f/g/g/ | (5:4:5(a/b/a/g/f/) (5:4:5(a'/b'/a'/g'/f'/)!8va(! a''!8va)! z | %286
[Q:1/4=120] (6:4:6G/G/G/G/g/g/ (6:4:6g/g/g'/g'/g'/g'/[Q:1/4=140]!8va(! g''(3f''/d''/e''/ | %287
 c''!8va)! .[Gc].[Gc].[Gc].[Gc].[Gc] | .[Gc].[Gc].[Gc].[Gc].[Gc] [GBdg] | %289
 [cegc']!mp! c/c/d/d/e/e/f/f/g/g/ | (5:4:5(a/b/a/g/f/) (5:4:5(a'/b'/a'/g'/f'/)!8va(! a''!8va)! z | %291
[Q:1/4=120] (6:4:6G/G/G/G/g/g/ (6:4:6g/g/g'/g'/g'/g'/[Q:1/4=140]!8va(! g''(3f''/d''/e''/ | %292
 c''!8va)! z3/2!ff![Q:1/4=100] !^![DE^GBe]/z/[EGde]/z/[^FBd^f]/z/[GBd^g]/ | %293
[Q:1/4=140] [Aca]!p! .[EA]!<(!.[EA].[EA].[EA].[EA] |[Q:1/4=120] z z[Q:1/4=100] z z z e!<)! || %295
[K:A][Q:1/4=120]!f! a4 g2 |"_dim." f4 e2 |!p! d4 c2 | B4 A2 | G3 G{/B}AG | G3 GFE |!p! a4 g2 | %302
 f4 e2 | d4 c2 | B4 A2 | G4 c2 | c2 ^B2 ^d2 | c2 g2 fe |[Q:1/4=100] ^d3[Q:1/4=90] ef[Q:1/4=72]g | %309
!p![Q:1/4=80] ([Gcg][^^F^^f]/[Gg]/ [Aa]/[Gg]/[^F^f]/[Ee]/ [^D^d]/[Cc]/[^B,^B]/[Cc]/) | %310
 ([B,B][A,A]- [A,A]/[Cc]/[Dd]/[Cc]/[^B,^B]/[Cc]/[Ff]/[Aa]/) | %311
 ([Gg]/[ee']/[^d^d']/[cc']/[^B^b]/[cc']/[dd']/[cc']/ [=B=b]/[Aa]/[Gg]/[Ff]/) | %312
 ([Ee][^D^d]- [Dd]/[Dd]/[Ee]/[Dd]/[^^C^^c]/[Dd]/[Ee]/[Ff]/) | %313
 ([Gg]/[gg']/[^^f^^f']/[gg']/[aa']/[gg']/[^f^f']/[ee']/[^d^d']/[cc']/[^B^b]/[cc']/) | %314
 ([^d^d']/[cc']/[Bb]/[Aa]/[Gg]/[Ff]/[Ee]/[^Dd]/[^^C^^c]/[Dd]/[Ff]/[Aa]/) | %315
 [Gg]/([gg']/[^^f^^f']/)([^f^f']/[ee']/)([^d^d']/[=d=d']/)([cc']/[=c=c']/)[_B_b]/([Aa]/[_A_a]/) | %316
 ([=G=g]/[Ff]/)([Ee]/[^D^d]/)([=D=d]/[Cc]/)([^B,^B]/[^A,^A]/)[Q:1/4=60]([=A,=A]/[G,^G]/)[Q:1/4=15]([Ee]/[Q:1/4=30][^D^d]/) | %317
[Q:1/4=60] c/[Q:1/4=120]!8va(! e''/^d''/c''/ b'/a'/g'/f'/!8va)!e'/^d'/c'/b/ | %318
 a/g/f/e/^d/e/f/^^f/g/a/g/^f/ | ^e/f/g/e/f/c'/g/c'/a/c'/e/c'/ | %320
 f/c'/g/c'/a/c'/[^eg]/c'/[fa]/c'/[eg]/c'/ | f6- | f4 ^e2 | %323
!<(! [^Ae]/E/[Ae]/c/ e/[^ae']/c'/e/!8va(! [^a'e'']/c''/a'/e'/!<)!!8va)! | %324
 d/e/d/c/ B/[dg]/^e/b/ [d'g']/^e'/d'/b/ |"_cresc." z/ F,/[^A,F]/C/ F/[^Af]/c/e/ [^af']/c'/a/f/ | %326
!f! D/E/D/C/ B,/[DG]/^E/B/ [dg]/^e/b/[Q:1/4=80][^e'g']/ | %327
!pp![Q:1/4=120] z F,/F/ G,/F/^A,/F/!<(! B,/F/C/F/!<)! | %328
!mp! D/!>(!E/D/C/!>)!!pp! B,/F/D/F/ B,/F/D/F/ |!p! [^A,^A] F,/F/ G,/F/A,/F/!<(! B,/F/C/F/!<)! | %330
!mf! D/!>(!E/D/C/!>)!!p! B,/F/D/F/ B,/G/D/G/ | [A,A] A,/A/ B,/A/C/A/ D/A/E/A/ | %332
 F/G/F/E/ D/A/F/A/!>(! D/B/=F/B/!>)! |!mp! [Cc] A,/A/ B,/A/C/A/ D/A/E/A/ | %334
 F/G/F/E/ D/A/F/A/!>(! D/B/=F/B/!>)! |!p! [Cc] C/c/!<(! ^D/c/^E/c/ F/c/G/!<)!c/ | %336
!mf! A/!>(!B/A/G/ F/c/A/c/!>)!!p! F/^d/A/d/ |!mp! [^E^e]!<(! C/c/ ^D/c/E/c/ F/c/G/c/!<)! | %338
!mf! A/B/A/G/ F/c/A/c/ F/^d/A/d/ |[Q:1/4=100] Tg6 | Tg6 | Tg6 | Tg6 | Tg6 | Tg6 | Tg6 | %346
 Tg2[Q:1/4=30] (28:16:28(g/4^^f/4g/4a/4g/4^f/4e/4^d/4e/4f/4e/4=d/4c/4B/4A/4G/4F/4E/4[Q:1/4=20]^D/4E/4^E/4F/4=G/4[Q:1/4=10]^G/4A/4^A/4B/4[Q:1/4=5]^B/4) || %347
[M:6/8][Q:1/4=92]"^Andante ma non troppo"[Q:1/4=42]!p!(18:12:18x/4C/4E/4A/4c/4e/4c'/4a/4e/4c/4A/4E/4C/4E/4C/4E/4C/4E/4 (18:12:18c/4C/4E/4A/4c/4e/4^b/4a/4^d/4^B/4A/4^D/4c/4C/4E/4C/4E/4C/4 | %348
(18:12:18x/4E/4A/4c/4e/4a/4e'/4c'/4a/4e/4c/4A/4E/4A/4E/4A/4E/4A/4(18:12:18x/4C/4E/4A/4c/4e/4c'/4a/4e/4c/4A/4E/4C/4E/4C/4E/4C/4E/4 | %349
(18:12:18x/4A,/4C/4E/4A/4c/4a/4e/4c/4A/4E/4C/4A,/4C/4A,/4C/4A,/4C/4(18:12:18x/4G,/4D/4E/4G/4d/4a/4e/4c/4A/4E/4C/4B/4G,/4D/4G,/4D/4G,/4 | %350
!<(!(18:12:18x/4^B,/4^D/4A/4!<)!!mf!^B/4^d/4^b/4a/4d/4B/4A/4E/4c/4C/4E/4C/4E/4C/4!>(!(18:12:18x/4A,/4C/4E/4A/4c/4a/4e/4c/4!>)!!mp!A/4E/4C/4A,/4C/4A,/4C/4A,/4C/4 | %351
(18:12:18x/4C/4F/4A/4c/4f/4c'/4a/4f/4c/4A/4F/4C/4F/4C/4F/4C/4F/4 (18:12:18c/4C/4F/4A/4c/4f/4^b/4a/4f/4^B/4A/4F/4c/4C/4F/4C/4F/4C/4 | %352
(18:12:18x/4[^DA^d]/4F/4A/4d/4f/4^d'/4a/4f/4d/4A/4F/4[Ad]/4F/4[Ad]/4F/4[Ad]/4F/4(18:12:18x/4E/4G/4c/4e/4g/4e'/4c'/4g/4e/4c/4G/4c/4E/4=G/4E/4G/4E/4 | %353
 (18:12:18c/4B,/4E/4G/4B/4e/4b/4g/4e/4B/4G/4E/4G/4B,/4E/4B,/4E/4B,/4 (18:12:18B/4B,/4^D/4F/4B/4^d/4a/4f/4d/4B/4F/4D/4F/4A,/4D/4A,/4D/4A,/4 | %354
 (18:12:18F/4A,/4^D/4F/4A/4^d/4b/4f/4d/4B/4F/4D/4A/4A,/4D/4A,/4G/4F/4 (18:12:18E/4G,/4B,/4E/4G/4B/4g/4e/4B/4G/4E/4B,/4G,/4B,/4G,/4B,/4G,/4B,/4 | %355
!p!(18:12:18x/4E/4G/4c/4e/4g/4e'/4c'/4g/4e/4c/4G/4E/4G/4E/4G/4E/4G/4 (18:12:18^d/4F/4A/4d/4f/4a/4^b/4a/4f/4^B/4A/4F/4d/4"_cresc."F/4A/4F/4A/4F/4 | %356
!mp!(18:12:18x/4E/4G/4c/4e/4g/4e'/4c'/4g/4e/4c/4G/4^^f/4c/4e/4c/4e/4c/4(18:12:18x/4E/4G/4c/4e/4g/4e'/4c'/4g/4e/4c/4G/4E/4G/4E/4G/4E/4G/4 | %357
!p!(18:12:18x/4E/4G/4c/4e/4g/4e'/4c'/4g/4e/4c/4G/4E/4G/4E/4G/4E/4G/4 (18:12:18^d/4F/4A/4d/4f/4a/4^b/4a/4f/4^B/4A/4F/4d/4"_cresc."F/4A/4F/4A/4F/4 | %358
!mp! (18:12:18c/4E/4G/4c/4e/4g/4e'/4c'/4g/4e/4c/4G/4^d/4G/4E/4G/4E/4G/4[Q:1/4=38]"_cresc." (18:12:18c/4E/4G/4c/4e/4g/4e'/4c'/4g/4e/4c/4G/4[Q:1/4=28]=d/4G/4E/4G/4!f!E/4G/4 | %359
[Q:1/4=42] (9:6:9c/.[A,E]/.[CA]/.[Ec]/.[Ae]/.[ca]/.[ec']/.[ae']/.[c'a']/(9:6:9x/.[Ae]/.[ca]/.[^d^b]/.[a^d']/.[ba']/.[c'a']/.[ec']/.[ae']/ | %360
(9:6:9x/.[A,E]/.[CA]/.[Ec]/.[Ae]/.[ca]/.[ec']/.[ae']/.[c'a']/(9:6:9x/.[A,E]/.[CA]/.[Ec]/.[Ae]/.[ca]/.[ec']/.[ae']/.[c'a']/ | %361
 (9:6:9A/.[A,E]/.[CA]/.[Ec]/.[Ae]/.[ca]/.[ec']/.[ae']/.[c'a']/ (9:6:9B/.[EB]/.[Ge]/.[ca]/.[ec']/.[ae']/.[ge']/.[bg']/.[e'b']/ | %362
(9:6:9x/.[A,^D]/.[^B,F]/.[DA]/.[F^B]/.[A^d]/.[ec']/.[ae']/.[c'a']/!8va(! (9:6:9.[e'c'']/.[a'e'']/.[e'c'']/.[c'a']/!8va)!.[ae']/.[ec']/.[ca]/.[Ae]/.[Ec]/ | %363
 (9:6:9[^Ac]/[I:staff +1].[E,^A,]/.[=G,C]/.[A,E]/[I:staff -1].[EA]/.[=Gc]/.[Ae]/.[e^a]/.[=gc']/!f! (9:6:9.[ae']/!8va(!.[d'^a']/.[=g'c'']/.[a'e'']/.[g'c'']/!8va)!.[da]/.[ae']/.[gc']/.[ea]/ | %364
!ff! (9:6:9e/[I:staff +1].[E,B,]/.[F,E]/[I:staff -1].[EB]/.[Fe]/.[eb]/.[f^d']/!8va(!.[e'b']/.[f'^d'']/ (9:6:9.[f'=d'']/.[=d'b']/!8va)!.[fd']/.[db]/.[Fd]/.[DB]/.[DB]/.!^![B,=F]/.[DB]/ | %365
 (9:6:9A/.[Ec]/.[Ae]/.[ca]/.[ec']/.[ae']/!8va(!.[c'a']/.[e'c'']/.[a'e'']/ (9:6:9.[e'c'']/!8va)!.[c'a']/.[ae']/.[ec']/.[ca]/.[Ae]/.[DB]/.[Ge]/.[EB]/ | %366
 [A,CA][Q:1/4=50][I:staff +1]C,/4E,/4A,/4C/4[I:staff -1]E/4A/4c/4e/4a/4!8va(!c'/4e'/4a'/4[Q:1/4=52]"_Lento"[Q:1/4=20] (3c''!>![^b^d'f'a'^b']!>![c'e'a'c''] | %367
!fff! !fermata![e'a'c''e'']6!8va)! |] %368
V:2
 [F,,,F,,]2 [F,,,F,,]2 | [F,,,F,,]2 [F,,,F,,]2 | [F,,,F,,]2 [F,,,F,,]2 | [F,,,F,,]2 F,,,2 | %4
 F,,,2 [F,,,F,,]2 | [F,,,F,,]2 [F,,,F,,]2 | [F,,,F,,]2 [F,,,F,,]2 | [F,,,F,,]2 E,,2 | %8
 [A,,,A,,]2 [G,,,G,,]2 | C,,2 [F,,,F,,]2 | [F,,,F,,]2 [F,,,F,,]2 | [F,,,F,,]2 F,,,2 | %12
 F,,,2 [F,,,F,,]2 | [F,,,F,,]2 [F,,,F,,]2 | [F,,,F,,]2 [F,,,F,,]2 | [F,,,F,,]2 E,,2 | %16
 D,,2 [B,,,B,,]2 | [F,,,F,,]2 z2 | z4 | z2!ped! [C,G,B,C]2 | [C,G,B,C]2 [C,G,B,C]2!ped-up! | %21
 [F,,C,A,]2 [F,,F,]2 | [F,,F,]2 [F,,F,]2 | [F,,F,]2 [F,,F,]2 | [F,,F,]2 F,,2 | F,,2 [F,,F,]2 | %26
 [F,,F,]2 [F,,F,]2 | [F,,F,]2 [F,,F,]2 | [F,,F,]2 E,2 | [A,,A,]2 [G,,G,]2 | C,2 [F,,F,]2 | %31
 [F,,F,]2 [F,,F,]2 | [F,,F,]2 F,,2 | F,,2 [F,,F,]2 | [F,,F,]2 [F,,F,]2 | [F,,F,]2 [F,,F,]2 | %36
 [F,,F,]2 E,2 | D,2 [B,,B,]2 | [F,,C,A,]2 z2 | z2 (F2 | D2 E2 | A,2) D2 | B,2 C2 | F,2 .F,, z | %44
 .G,, z .A,, z | .B,, z .C, z | .C,.E,.D,.C, | ^B,,2 =B,,2 | A,,2 =A,,2 |!mf! [G,,E,]2 [G,,D,]2 | %50
!mp! [C,,C,] z z2 | [C,G,B,C] z z2 | [C,G,B,C] z z2 | [C,A,C] z z2 | [C,G,C] z z2 | %55
 [C,G,B,C] z z2 | [C,G,B,C] z z2 | [C,A,C] z z2 | [C,G,C] z z2 | %59
!ped! !arpeggio![F,,C,A,] z!ped-up! z2 |!ped! !arpeggio![G,,^^C,A,] z!ped-up! z2 | %61
!ped! !arpeggio![F,,D,A,] z!ped-up! z2 |!ped! !arpeggio![F,,C,=A,] z!ped-up! z2 | %63
!ped! !arpeggio![F,,C,=A,] z!ped-up! z2 |!ped! !arpeggio![E,,C,G,] z!ped-up! z2 | %65
!ped! !arpeggio![F,,D,A,] z!ped-up!!ped! [^^F,,=E,] z!ped-up! |!ped! [G,,E,G,] z!ped-up! z2 | %67
 E,2 =E,C, | G,4 | ([F,,F,]2 G,,2) |!ped! [C,,C,] z!ped-up! z2 | [C,G,B,C] z z2 | [C,G,B,C] z z2 | %73
 [C,A,C] z z2 | [C,G,C] z z2 | [C,G,B,C] z z2 | [C,G,B,C] z z2 | [C,A,C] z z2 | [C,G,C] z z2 | %79
 [C,=G,A,=E] z!ped! z2 | [C,=G,A,=E] z z2 | [C,=G,A,=E] z!ped-up! z2 | %82
 z2[K:treble]!ped! =g/=e/c/A/ |[K:bass] =G/=E/C/A,/ =G,/=E,/C,/A,,/!ped-up! | .C,!p!.C.=G.C, | %85
 .=G,,.C,,.=G,,,.C,,, | C,, !fermata!z[K:treble]!ped! =g/=e/c/A/ | %87
[K:bass] =G/=E/C/A,/ =G,/=E,/C,/A,,/!ped-up! | .C,!p!.C.=G.C, | .=G,,.C,,.=G,,,.C,,, | %90
 .C,,.C,.C z | z .B,,.C z | z4 | z .A,,.F z | z4 | z .G,,[I:staff -1].c[I:staff +1] z | z4 | %97
 !fermata!z4 ||[M:9/8]!ped! [F,,,F,,] F,C,A,F,CA,FC!ped-up! | %99
!ped! [F,,,F,,] F,C,A,F,CA,FC!ped-up! |!ped! C,, CG,GCG,[C,B,]EC!ped-up! | %101
!ped! [F,,C,A,]CA,AFCA,F,C,!ped-up! |!ped! [B,,,B,,] B,F,DB,F, [B,,,B,,] [DE]B,!ped-up! | %103
!ped! [A,,,A,,]A,E,^^CA,E[D,,D,]A,D!ped-up! |!ped! [C,,C,]CA,FCA,[C,,C,]C[C,B,]!ped-up! | %105
!ped! [F,,C,A,]A,F,CFE=ED=D!ped-up! |!ped! F,, F,C,A,F,CA,FC!ped-up! | %107
!ped! [F,,,F,,] F,C,A,F,CA,FC!ped-up! |!ped! [C,,C,]CG,GCG,[=E,,=E,]CA,!ped-up! | %109
!ped! [D,,D,]D,CA,^^FCD,CA,!ped-up! |!ped! [G,,,G,,]G,D,B,G,DB,GD!ped-up! | %111
!ped! [D,,D,]A,F,DA,F,[D,,D,]=A,D,!ped-up! | %112
!ped! [C,,C,]CA,!ped-up!!ped!xCA,!ped-up!!ped! ^B, =B,2!ped-up! | %113
!ped! [F,,C,A,]CA,AFCA,F,C,!ped-up! |!ped! [B,,,B,,]B,F,=DB,F,[=G,,=D,]B,=G,!ped-up! | %115
!ped! [=D,,=D,]=CF,=DCF,[=G,,D,B,]B,=G,!ped-up! | %116
!ped! [B,,,B,,]B,F,=DB,F,[=G,,=D,B,]B,=G,!ped-up! | %117
!ped! [=D,,=D,]=CF,=DCF,[=G,,D,B,]B,=G,!ped-up! |!ped! [G,,,G,,]=DB,GDB,[A,,,A,,]CA,!ped-up! | %119
!ped! [B,,,B,,]B,,F,^^F,G,A,B,=A,^B,,!ped-up! |!ped! [C,,C,]A,F,C,CC,CC,C!ped-up! | %121
!ped! [F,,,F,,] .C.A,.F.C.A,.F,.C,.A,,!ped-up! | %122
!ped! [C,,,C,,]/[C,,,C,,]/[C,,,C,,]/ z/!ped-up! .[CE] !>!.!^![CF].[CE]!>!.!^![C=A] .[CG].[CF].[CE] | %123
 [G,D] [G,,D,F,^B,][G,,D,F,A,][G,,D,F,G,][G,B,F][G,B,G][G,B,=A][G,B,G][G,B,F] | %124
!ped! [C,,,C,,]/[C,,,C,,]/[C,,,C,,]/ z/!ped-up! .[CE] !>!.!^![CF].[CE]!>!.!^![C=A] .[CG].[CF].[CE] | %125
 [G,D] [G,,D,F,^B,][G,,D,F,A,][G,,D,F,G,][G,B,F][G,B,G][G,B,=A][G,B,G][G,B,F] | %126
 [C,,C,]/[C,,C,]/[C,,C,][G,C] [C,,C,]/.C,/.D,/.E,/.F,/.G,/ .[C,=A,]/.B,/.A,/.G,/.F, | %127
!ped! [C,,C,]/[C,,C,]/[C,,C,][G,C]!ped-up! [C,,C,]/.C,/.D,/.E,/.F,/.G,/ .[C,=A,]/.B,/.A,/.G,/.F, | %128
!ped! [C,,C,]/[C,,C,]/[C,,C,][E,G,C]!ped-up!!ped! [C,,C,]/[C,,C,]/[C,,C,][E,G,C]!ped-up!!ped! [A,,,A,,]/[A,,,A,,]/[A,,,A,,][E,A,^^C]!ped-up! | %129
!ped! [=A,,,=A,,]/[A,,,A,,]/[A,,,A,,][=A,B,D]!ped-up!!ped! [G,,,G,,]/[G,,,G,,]/[G,,,G,,][G,B,=E]!ped-up!!ped! [C,,,C,,]/[C,,,C,,]/[C,,,C,,][G,B,C]!ped-up! | %130
 z2 z z2 z z2 z/4[K:treble] [CG]/4[F=A]/4[^^F^A]/4 | %131
 [GB] z z/4[K:bass] [C,G,]/4[F,=A,]/4[^^F,^A,]/4 [G,B,] z z/4 [C,,G,,]/4[F,,=A,,]/4[^^F,,^A,,]/4 [G,,B,,] z/4 [C,G,]/4[^F,=A,]/4[^^F,^A,]/4[G,B,]/4[K:treble][CG]/4[F=A]/4[^^F^A]/4 | %132
 [GB] z8 |[K:bass]!ped! [F,,,F,,] .C.A,.F.C.A,.F,.C,.A,,!ped-up! | %134
!ped! [F,,,F,,].C.A,.F.C.A,.F,.C,.A,,!ped-up! |!ped! [C,,,C,,] CG,GCG,[C,B,]EC!ped-up! | %136
!ped! [F,,C,A,]CA,AFCA,F,C,!ped-up! |!ped! [B,,,B,,]B,F,DB,F,[B,,,B,,][DE]B,!ped-up! | %138
!ped! [A,,,A,,]A,E,^^CA,E[D,,D,]A,D!ped-up! |!ped! [C,,C,]CA,FCA,[C,B,]EC!ped-up! | %140
!ped! [F,,C,A,]CA,AFCA,F,C,!ped-up! |!ped! [B,,,B,,]B,F,=DB,F,[=G,,=D,B,]B,=G,!ped-up! | %142
!ped! [=D,,=D,]=CF,=DCF,[=G,,D,B,]B,=G,!ped-up! | %143
!ped! [B,,,B,,]B,F,=DB,F,[=G,,=D,B,]B,=G,!ped-up! | %144
!ped! [=D,,=D,]=CF,=DCF,[=G,,D,B,]B,=G,!ped-up! |!ped! [C,,,C,,] C,B,EB,C,[C,,C,]E,[B,E]!ped-up! | %146
!ped! [^^C,,^^C,]C,[A,E]!ped-up!!ped! [D,,D,]D,[A,D]!ped-up!!ped! [A,,,A,,]A,[^^CG]!ped-up! | %147
!ped! [B,,,B,,]B,DB,DB,[C,,C,]C,[B,E]!ped-up! | %148
!ped! (F,,/4C,/4A,/4C,/4F,,/4C,/4A,/4C,/4F,,/4C,/4A,/4C,/4F,,/4C,/4A,/4C,/4F,,/4C,/4A,/4C,/4F,,/4C,/4A,/4C,/4B,,/4F,/4D/4F,/4B,,/4F,/4D/4F,/4B,,/4F,/4D/4F,/4)!ped-up! | %149
!ped! F,,/4C,/4A,/4C,/4F,,/4C,/4A,/4C,/4F,,/4C,/4A,/4C,/4F,,/4C,/4A,/4C,/4F,,/4C,/4A,/4C,/4F,,/4C,/4A,/4C,/4B,,/4F,/4=D/4F,/4B,,/4F,/4D/4F,/4B,,/4F,/4D/4F,/4!ped-up! | %150
!ped! F,,/4C,/4A,/4C,/4F,,/4C,/4A,/4C,/4F,,/4C,/4A,/4C,/4F,,/4C,/4A,/4C,/4F,,/4C,/4A,/4C,/4F,,/4C,/4A,/4C,/4F,,/4C,/4A,/4C,/4F,,/4C,/4A,/4C,/4F,,/4C,/4A,/4C,/4!ped-up! | %151
 F,,/4C,/4F,,/4C,/4F,,/4C,/4F,,/4C,/4F,,/4C,/4F,,/4C,/4F,,/4C,/4F,,/4C,/4F,,/4C,/4F,,/4C,/4F,,/4C,/4F,,/4C,/4F,,/4C,/4F,,/4C,/4F,,/4C,/4F,,/4C,/4F,,/4C,/4F,,/4C,/4 || %152
[K:A][M:4/4]!mp!!ped! F,4- F,!<(!F,/G,/ A,B,/C/!ped-up!!<)! |!f!!ped! D6 D>D!ped-up! | %154
!ped! C6- C>B,!ped-up! |!mp!!ped! A,4 F,!<(!A,D>F!ped-up!!<)! | %156
!f!!>(!!ped! F2!>)!!mf! E,2 F,!<(!A,C>F!ped-up!!<)! |!f!!>(!!ped! F2 z2!>)!!mf! B,7/2 B,/!ped-up! | %158
!ped! ^B,6- B,>B,!ped-up! |!ped! C6- C>C!ped-up! |!ped! B,4 A,4!ped-up! | %161
!ped! G,4 G,7/2 F,/!ped-up! |!ped! ^E,4 F,4!ped-up! | C,4!p! [^E,G,]4 | %164
!p! [F,A,]4!p! z2 (6:4:6z/ C,,/D,,/E,,/D,,/C,,/ | z4 z!p! z/"_left hand only" C,<F,G,/ | %166
 !>!A,7/2!ped! !>!G,/ !>!F,>!ped-up!C,F,>G, | !>!A,7/2!ped! !>!G,/!<(! !>!F,>!ped-up!F,A,>B,!<)! | %168
!>(! !>!C7/2!ped!!>)!!ped-up! B,/4A,/4 G,>B,A,>G, | !>!A,7/2!ped! !>!C/ !>!F,>!ped-up!C,F,>G, | %170
 !>!A,7/2!ped! !>!G,/!<(! !>!F,>!ped-up!F,A,>B,!<)! | !>!C7/2!ped! !>!G,/ !>!E,>!ped-up!CE>C | %172
 !>!G,4!ped! (6:4:6.G,!ped-up!.A,.G,.F,.^D,.G, | !>!C,4!ped! z!ped-up! z/ C<CC/ | %174
 !>![E,E]7/2!ped!!ped-up! D/4C/4 B,>!p!B,^A,>B, | %175
 !>!D7/2!ped! !>!C/4B,/4 !>!A,>!ped-up!!p!A,G,>A, | %176
 !>!C7/2!ped! !>!B,/4A,/4!ped-up! !>!G,>!p!G,^^F,>G, | %177
 !>!B,7/2!ped! !>!A,/4G,/4!ped-up! !>!F,>!p!F,^E,>F, | !>!G,4!ped! F,>!ped-up!F, ^E,>F, | %179
 !>!A,4!ped!!<(! (6:4:6.G,!ped-up!.G,.A,.B,.C.D!<)! | %180
 !>!D2!ped! !>!C2 (6:4:6.C!ped-up!.G,.A,.B,.G,.C | !>!F,4!ped! z4!ped-up! | %182
!ped! [F,,,F,,][C,F,][F,A,][D,G,]/[I:staff -1]G/F[I:staff +1][C,F,A,]/[I:staff -1]C/F[I:staff +1][C,F,A,]!ped-up! | %183
!ped! [F,,,F,,][C,F,][F,A,][D,G,]/[I:staff -1]G/F[I:staff +1][C,F,A,]/[I:staff -1]F/A[I:staff +1][C,F,A,]!ped-up! | %184
!ped! [C,,,C,,][^E,B,C][B,CG][E,B,C]/[I:staff -1]B/4A/4G[I:staff +1][E,B,C]/[I:staff -1]B/A[I:staff +1][E,B,C]!ped-up! | %185
!ped! [F,,,F,,][C,F,][F,A,][D,G,]/[I:staff -1]c/F[I:staff +1][C,F,A,]/[I:staff -1]C/F[I:staff +1][C,F,A,]!ped-up! | %186
!ped! [F,,,F,,][C,F,][F,A,][D,G,]/[I:staff -1]G/F[I:staff +1][C,F,A,]/[I:staff -1]F/A[I:staff +1][C,F,A,]!ped-up! | %187
!ped! [C,,,C,,][E,G,C][CEG][E,G,C]/[I:staff -1]G/E[I:staff +1][E,G,C]/[I:staff -1][Cc]/[Ee]-[I:staff +1][E,G,C]!ped-up! | %188
!ped! [G,,,G,,][G,,^D,F,][D,F,^B,][G,,D,F,] (6:4:6[D,F,B,][I:staff -1]!>![A,A]!>![G,G][I:staff +1]!>![F,F]!>![D,^D]!>![G,G]!ped-up! | %189
!ped! [C,,,C,,][E,G,C][G,CE][E,G,C][G,CE][E,G,C] E/4C/4A,/4E,/4C,/4A,,/4E,,/4C,,/4!ped-up! | %190
!ped! [G,,,G,,][G,,D,E,][D,E,B,][G,,D,E,]/[I:staff -1]d/4c/4B[I:staff +1][D,E,B,] E/4D/4G,/4E,/4D,/4G,,/4E,,/4D,,/4!ped-up! | %191
!ped! [A,,,A,,][E,A,][G,E][E,A,]/[I:staff -1]B/A[I:staff +1][E,A,] E/4C/4A,/4E,/4C,/4A,,/4E,,/4C,,/4!ped-up! | %192
!ped! [^E,,,^E,,][^E,B,C][B,C^E][E,B,C]/[I:staff -1]B/4A/4G[I:staff +1][E,B,C] E/4C/4G,/4E,/4C,/4G,,/4E,,/4C,,/4!ped-up! | %193
!ped! [F,,,F,,][C,F,][F,A,][C,F,]/[I:staff -1]G/F[I:staff +1][C,F,A,][I:staff -1] ^E/4C/4[I:staff +1]A,/4F,/4C,/4A,,/4F,,/4C,,/4!ped-up! | %194
!ped! [A,,,A,,][A,C][I:staff -1]!>![F,F][I:staff +1][A,C] [A,,,A,,] !>![F,F]!>![^E,^E]!>![F,F]!ped-up! | %195
!ped! [B,,,B,,][B,D][I:staff -1]!>![G,G]-[I:staff +1][B,D][I:staff -1] (6:4:6!>![G,G]!>![G,G]!>![A,A]!>![B,B]!>![Cc]!>![Dd]!ped-up! | %196
[I:staff +1] [^D,,,^B,,,]/[B,,,F,,A,,]/[F,,A,,^D,]/[^B,,D,A,]/ [F,A,^D]/[K:treble][^B,FA]/[FA^d]/[^Bfa]/ [fa^d'](20:16:20^b3/16a3/16f3/16d3/16B3/16A3/16F3/16D3/16[K:bass]B,3/16A,3/16F,3/16D,3/16B,,3/16A,,3/16F,,3/16^D,,3/16B,,,3/16A,,,3/16F,,,3/16D,,,3/16 | %197
!ped! C,,,/4^D,,,/4C,,,/4D,,,/4C,,,/4D,,,/4C,,,/4D,,,/4 C,,,/4D,,,/4C,,,/4D,,,/4C,,,/4D,,,/4C,,,/4D,,,/4 [C,,,C,,]>[C,A,C][C,A,C]>[C,A,C]!ped-up! | %198
!ped! C,/4^B,,/4C,/4B,,/4C,/4B,,/4C,/4B,,/4 C,/4B,,/4C,/4B,,/4C,/4B,,/4C,/4B,,/4 C,/4B,,/4C,/4B,,/4C,/4B,,/4C,/4B,,/4 C,/4B,,/4C,/4B,,/4C,/ z/4 z/4!ped-up! | %199
!ped! C,,,/4^D,,,/4C,,,/4D,,,/4C,,,/4D,,,/4C,,,/4D,,,/4 C,,,/4D,,,/4C,,,/4D,,,/4C,,,/4D,,,/4C,,,/4D,,,/4 [C,,,C,,]>[B,,F,B,][B,,F,B,]>[B,,F,B,]!ped-up! | %200
!ped! C,/4^B,,/4C,/4B,,/4C,/4B,,/4C,/4B,,/4 C,/4B,,/4C,/4B,,/4C,/4B,,/4C,/4B,,/4 C,/4B,,/4C,/4B,,/4C,/4B,,/4C,/4B,,/4 C,/4B,,/4C,/4B,,/4C,/ z/4 z/4!ped-up! | %201
!ped! C,,,/4^D,,,/4C,,,/4D,,,/4C,,,/4D,,,/4C,,,/4D,,,/4 C,,,/4D,,,/4C,,,/4D,,,/4C,,,/4D,,,/4C,,,/4D,,,/4 [C,,,C,,]>[A,,F,A,][A,,F,A,]>[A,,F,A,]!ped-up! | %202
!ped! C,/4^B,,/4C,/4B,,/4C,/4B,,/4C,/4B,,/4 C,/4B,,/4C,/4B,,/4C,/4B,,/4C,/4B,,/4 C,/4B,,/4C,/4B,,/4C,/4B,,/4C,/4B,,/4 C,/4B,,/4C,/4B,,/4C,/ z/4 z/4!ped-up! | %203
!ped! C,/4^B,,/4C,/4B,,/4C,/4B,,/4C,/4B,,/4 C,/4B,,/4C,/4B,,/4C,/4B,,/4C,/4B,,/4 C,/4B,,/4C,/4B,,/4C,/ z2 z/4 z/4!ped-up! || %204
[K:F#]!ped! [F,,,F,,][C,F,A,][F,A,C][C,F,A,] F,[C,F,A,]F,[C,F,A,]!ped-up! | %205
!ped! [F,,,F,,][C,F,A,][F,A,C][C,F,A,] F,[C,F,A,]F,[C,F,A,]!ped-up! | %206
!ped! [C,,,C,,][C,G,B,][G,B,E][D,G,B,][I:staff -1] G,[I:staff +1][C,G,B,][I:staff -1]A,[I:staff +1][C,G,B,]!ped-up! | %207
!ped! [F,,,F,,][C,F,A,][F,A,C][C,F,A,] F,[C,F,A,][F,,,F,,][C,F,]!ped-up! | %208
!ped! [^^F,,,^^F,,][^^F,A,][A,C][F,A,][I:staff -1] D[I:staff +1][D,F,CD][D,,,D,,][F,A,C]!ped-up! | %209
!ped! [G,,,G,,][D,G,][G,B,][D,G,][I:staff -1] B,[I:staff +1][D,G,B,][G,,,G,,][D,G,B,]!ped-up! | %210
!ped! [E,,,E,,][G,B,][E,G,][G,B,][I:staff -1] C[I:staff +1][C,E,B,][C,,B,,C,][C,E,B,]!ped-up! | %211
!ped! [F,,,F,,][C,F,][F,A,][C,F,] [F,C][C,F,A,][F,,,F,,][C,F,A,]!ped-up! | %212
!ped! [B,,,B,,][G,B,=DE][=D,,=D,][G,B,DE] [C,,C,][G,B,][B,,,B,,][B,,E,]!ped-up! | %213
!ped! [A,,,A,,][A,C][CF][I:staff -1]B,[I:staff +1] z [A,C][A,,,A,,][A,C]!ped-up! | %214
!ped! [B,,,B,,][G,B,=DE][=D,,=D,][G,B,DE] [C,,C,][G,B,][B,,,B,,][B,,E,]!ped-up! | %215
!ped! [A,,,A,,][A,,E,][E,=G,][G,C] [B,,,B,,] z z z!ped-up! | %216
!ped! [C,,,C,,][C,,A,,C,][C,A,C][A,CF] [C,,C,]E,[G,B,]E,!ped-up! | %217
!ped! [F,,,F,,][A,CF]!^!C,[A,CF] A,,[A,CF]^F,,[A,C=E]!ped-up! | %218
!ped! [B,,,B,,][G,B,=DE][=D,,=D,][G,B,DE] [C,,C,]E, B,,2!ped-up! | %219
!ped! [F,,,F,,][A,C][CF][I:staff -1]B,[I:staff +1] z [A,C][A,,,A,,] z!ped-up! | %220
!ped! [B,,,B,,][G,B,=DE][=D,,=D,][G,B,DE] [C,,C,]E, B,,2!ped-up! | %221
!ped! [F,,,F,,][=G,A,C=E][A,CE=G][G,A,CE] [B,,,B,,] z z z!ped-up! | %222
!ped! [C,,,C,,]!p![C,E,G,C][A,CF][C,F,A,] [C,,,C,,][C,,B,,][C,E,B,][C,,B,,]!ped-up! | %223
!ped! [F,,,F,,]([C,F,A,][D,F,A,D][C,F,A,C] [D,F,A,D][C,F,A,C][A,,C,F,A,][F,,A,,C,F,])!ped-up! | %224
!ped! F,,, ([F,A,CE]!arpeggio![E,A,^^CG][D,F,A,D] !arpeggio![^^C,G,A,E][^C,F,A,^C][C,F,A,C][A,,C,F,A,])!ped-up! | %225
!ped! z [F,A,CF]!arpeggio![F,^B,DG]!arpeggio![F,B,D=A] !arpeggio![F,CF^A]!arpeggio![F,B,D=A]!arpeggio![F,CF^A]!arpeggio![F,B,D=A]!ped-up! | %226
!ped! F,,/4C,/4A,/4C,/4F,,/4C,/4A,/4C,/4F,,/4C,/4A,/4C,/4F,,/4C,/4A,/4C,/4 F,,/4C,/4A,/4C,/4F,,/4C,/4A,/4C,/4F,,/4C,/4A,/4C,/4F,,/4C,/4A,/4C,/4!ped-up! | %227
!ped! F,, z x2 x4!ped-up! | %228
!ped! [F,,,F,,] !arpeggio![F,,,C,,A,,]!arpeggio![F,,C,A,]!arpeggio![F,CA][K:treble]!arpeggio![Fca] z z2!ped-up! || %229
[M:3/4] z4 z[K:treble] !^!c | !^!f4- f!^!A | !^!c4- c!^!C | G6 | C4 C,2 | F,4 .C,.C | %235
!<(! D,A,G,,B,!<)! TA,,2 | _E,, z2 z z[K:treble] !^!_B | !^!_e4- _e!^!_G | !^!_B4- _B!^!_B, | %239
 !^!=F4- F[K:bass]!^!=F, | !^!=C4- C!^!=C, | =G,4 .=D,.=C |!<(! ._E,._B,.=C,.=C.=D,.=D,,!<)! | %243
 [=G,,,=G,,] z z[K:treble] =d=g[K:bass] =D, | =G, =D,,=G,, z z2 | %245
!ped! z2 z[K:treble] =gc'[K:bass] =G, | C =G,,C, z z2!ped-up! | %247
!ped! z2 z[K:treble] a=e'[K:bass] A, | =E A,,=E, z z2!ped-up! | %249
!ped! z2 z[K:treble] b=e'[K:bass] B, | =E B,,=E, z z2!ped-up! || %251
[K:C] [A,,,A,,]!p! .[E,A,C].[E,A,C].[E,A,C].[E,A,C].[E,A,C] | %252
 [D,,D,] .[F,A,B,D].[F,A,B,D].[F,A,B,D].[F,A,B,D].[F,A,B,D] | %253
 [E,,E,] .[^G,DE].[G,DE].[G,DE].[G,DE].[G,DE] | [A,,,A,,] .[A,C].[A,C].[A,C].[A,C].[A,C] | %255
 .[A,C].[A,C].[A,C].[A,C].[A,C] [E,,^G,,B,,E,] | %256
 [A,,,A,,]!p! .[E,A,C].[E,A,C].[E,A,C].[E,A,C].[E,A,C] | %257
 [D,,D,] .[F,A,B,D].[F,A,B,D].[F,A,B,D].[F,A,B,D].[F,A,B,D] | %258
 [E,,E,] .[^G,DE].[G,DE].[G,DE].[G,DE].[G,DE] | .[A,CE] z!ped! !^![G,,D,F,B,]4 | %260
 !arpeggio![C,,G,,E,]!ped-up! .[CE].[CE].[CE].[CE].[CE] | .[CE].[CE].[CE].[CE].[CE] [G,,B,,D,G,] | %262
 [C,,C,]!p! .[G,CE].[G,CE].[G,CE].[G,CE].[G,CE] | %263
 F,, .[F,A,CD].[F,A,CD].[F,A,CD].[F,A,CD].[F,A,CD] | G,, .[G,B,F].[G,B,F].[G,B,F].[G,B,F].[G,B,F] | %265
 [C,,C,] .[CE].[CE].[CE].[CE].[CE] | .[CE].[CE].[CE].[CE].[CE] [G,,B,,D,G,] | %267
 [C,,C,]!p! .[G,CE].[G,CE].[G,CE].[G,CE].[G,CE] | %268
 F,, .[F,A,CD].[F,A,CD].[F,A,CD].[F,A,CD].[F,A,CD] | G,, .[G,B,F].[G,B,F].[G,B,F].[G,B,F].[G,B,F] | %270
 [C,,C,] z!ped! !^![E,,^G,,B,,D,E,]4 | %271
 !arpeggio![A,,,E,,C,]!ped-up! .[A,C].[A,C].[A,C].[A,C].[A,C] | %272
 .[A,C].[A,C].[A,C].[A,C].[A,C] [E,,^G,,B,,E,] | %273
 [A,,,A,,]!p! .[E,A,C].[E,A,C].[E,A,C].[E,A,C].[E,A,C] | %274
 [D,,D,] .[F,A,B,D].[F,A,B,D].[F,A,B,D].[F,A,B,D].[F,A,B,D] | %275
 [E,,E,] .[^G,DE].[G,DE].[G,DE].[G,DE].[G,DE] | [A,,,A,,] .[A,C].[A,C].[A,C].[A,C].[A,C] | %277
 .[A,C].[A,C].[A,C].[A,C].[A,C]/4A,,/4G,,/4F,,/4E,,/4D,,/4C,,/4B,,,/4 | %278
 [A,,,A,,]!p! .[E,A,C].[E,A,C].[E,A,C].[E,A,C].[E,A,C] | %279
 [D,,D,] .[F,A,B,D].[F,A,B,D].[F,A,B,D].[F,A,B,D].[F,A,B,D] | %280
 [E,,E,] .[^G,DE].[G,DE].[G,DE].[G,DE].[G,DE] | %281
 .[A,CE] z!ped! !^![G,,D,F,B,](17:12:17(F/4E/4D/4)C/4B,/4A,/4G,/4F,/4E,/4D,/4C,/4B,,/4A,,/4G,,/4F,,/4E,,/4D,,/4 | %282
 C,,!ped-up! .[CE].[CE].[CE].[CE].[CE] | .[CE].[CE].[CE].[CE].[CE] [G,,B,,D,G,] | %284
 [C,,C,]!p! .[G,CE].[G,CE].[G,CE].[G,CE].[G,CE] | %285
 F,, .[F,A,CD].[F,A,CD].[F,A,CD].[F,A,CD].[F,A,CD] | G,, .[G,B,F].[G,B,F].[G,B,F].[G,B,F].[G,B,F] | %287
 C,,.[CE].[CE].[CE].[CE].[CE] | .[CE].[CE].[CE].[CE].[CE] [G,,B,,D,G,] | %289
 [C,,C,]!p! .[G,CE].[G,CE].[G,CE].[G,CE].[G,CE] | %290
 F,, .[F,A,CD].[F,A,CD].[F,A,CD].[F,A,CD].[F,A,CD] | G,, .[G,B,F].[G,B,F].[G,B,F].[G,B,F].[G,B,F] | %292
 C,, z3/2!ped! !^![E,,^G,,B,,D,E,]/[E,B,^D]/z/[E,B,=DF]/z/[E,B,DG]/ z/ | %293
 [A,,,A,,]!ped-up! .[A,C].[A,C].[A,C].[A,C].[A,C] | .[A,^C].[A,C].[A,C].A,.E,.^C, || %295
[K:A] [A,,,A,,] .A,.B,.C.D.E | (F/G/F/E/ D) z C z | B, .B,,.C,.D,.E,.F, | %298
 (G,/A,/G,/F,/ ^E,) z F, z | B,,2 C,2 D,2 | x2 E,4 | [A,,,A,,] .A,.B,.C.D.E | (F/G/F/E/ D) z C z | %303
 B, .B,,.C,.D,.E,.F, | (G,/A,/G,/F,/ ^E,) z F, z | [G,,,G,,] .C,.^D,.E,.F,.G, | %306
 (A,/B,/A,/G,/ F,) z z z | [G,,,G,,][K:treble] .C.^D.E.F.G | (A/B/A/G/) .F.E.^D.C | %309
[K:bass]!pp!!ped! [E,,,E,,] E,G,CG,E,!ped-up! |!ped! [F,,,F,,] F,,C,A,C,F,,!ped-up! | %311
!ped! [E,,,E,,] E,G,ECG,!ped-up! |!ped! [F,,,F,,] F,,^B,,A,B,,F,,!ped-up! | %313
!ped! [E,,,E,,] E,G,CG z!ped-up! |!ped! [F,,,F,,] F,,C,^D,A, z!ped-up! | %315
!ped! [G,,,G,,] G,,E,G,C z!ped-up! |!ped! [G,,,G,,] G,,^D,F, z z!ped-up! | C6- | C4 ^B,2 | %319
 [C,C][K:treble] .C.^D.E.F.G | A/B/A/G/ .F.C.F[K:bass] [C,C] | z/ F/E/D/C/B,/A,/G,/F,/E,/D,/C,/ | %322
 B,,/C,/B,,/A,,/ G,,/A,,/B,,/^B,,/ C,C,, | %323
 [F,,,F,,][K:treble]!ped! .[F,F].[G,G].[^A,^A].[B,B].[Cc]!ped-up! | %324
[K:bass] D/E/D/C/!ped! B,.[D,D].[C,C].[B,,B,]!ped-up! | %325
 [F,,,F,,]!ped! .[F,,F,].[G,,G,].[^A,,^A,].[B,,B,].[C,C]!ped-up! | %326
!ped! D,/E,/D,/C,/ B,,.[D,,D,].[C,,C,].[B,,,B,,]!ped-up! | %327
!ped! [F,,,F,,] ^A,,/F,,/ B,,/F,,/C,/F,,/ D,/F,,/E,/F,,/ | %328
 F,/G,/F,/E,/ D,/F,,/D,/F,,/ D,/F,,/D,/F,,/!ped-up! | %329
!ped! [F,,,F,,] ^A,,/F,,/ B,,/F,,/C,/F,,/ D,/F,,/E,/F,,/ | %330
 F,/F,,/E,/F,,/ D,/F,,/D,/F,,/ D,/F,,/D,/F,,/!ped-up! | %331
!ped! [F,,,F,,] C,/A,,/ D,/A,,/E,/A,,/ F,/A,,/G,/A,,/ | %332
 A,/A,,/G,/A,,/ F,/A,,/F,/A,,/ F,/A,,/F,/A,,/!ped-up! | %333
!ped! [A,,,A,,] C,/A,,/ D,/A,,/E,/A,,/ F,/A,,/G,/A,,/ | %334
 A,/A,,/G,/A,,/ F,/A,,/F,/A,,/ F,/A,,/F,/A,,/!ped-up! | %335
!ped! [A,,,A,,] ^E,/C,/ F,/C,/G,/C,/ A,/C,/B,/C,/ | C/C,/B,/C,/ A,/C,/A,/C,/ A,/C,/A,/C,/!ped-up! | %337
!ped! [C,,C,] ^E,/C,/ F,/C,/G,/C,/ A,/C,/B,/C,/ | C/C,/B,/C,/ A,/C,/A,/C,/ A,/C,/A,/C,/!ped-up! | %339
 [C^E]6 | [C^E]2 [C^^D]2 [CE]2 | [C^E]6 | [C^E]2 z2 z2 | [CE]6 | [CE]2 [^B,^D]2 [CE]2 | [CE]6 | %346
 [CE]2 z2 [B,,E,G,]2 || %347
[M:6/8]!ped! (18:12:18A,,/4C,/4E,/4A,/4C/4E/4A/4E/4C/4A,/4E,/4C,/4A,,/4E,/4A,,/4E,/4A,,/4E,/4!ped-up!!ped! (18:12:18A,,/4E,/4A,/4C/4E/4A/4[I:staff -1]^B/4[I:staff +1]A/4F/4^D/4^B,/4F,/4A,,/4E,/4A,,/4E,/4A,,/4!ped-up!E,/4 | %348
!ped! (18:12:18A,,/4E,/4A,/4C/4E/4[I:staff -1]A/4c/4A/4[I:staff +1]E/4C/4A,/4E,/4A,,/4E,/4A,,/4E,/4A,,/4E,/4!ped-up!!ped! (18:12:18A,,/4C,/4E,/4A,/4C/4E/4A/4E/4C/4A,/4E,/4C,/4A,,/4E,/4A,,/4E,/4A,,/4E,/4!ped-up! | %349
!ped! (18:12:18E,,/4A,,/4E,/4A,/4C/4E/4A/4E/4C/4A,/4E,/4C,/4E,,/4C,/4E,,/4C,/4E,,/4C,/4!ped-up!!ped! (18:12:18E,,/4D,/4E,/4G,/4D/4E/4[I:staff -1]A/4[I:staff +1]E/4C/4A,/4E,/4C,/4E,,/4D,/4E,,/4D,/4E,,/4!ped-up!C,/4 | %350
!ped! (18:12:18A,,/4^D,/4F,/4A,/4^D/4F/4A/4F/4D/4A,/4F,/4D,/4A,,/4E,/4A,,/4E,/4A,,/4E,/4!ped-up!!>(!!ped! (18:12:18A,,/4E,/4A,/4C/4E/4[I:staff -1]A/4c/4A/4[I:staff +1]E/4!>)!C/4A,/4E,/4A,,/4E,/4A,,/4E,/4A,,/4E,/4!ped-up! | %351
!ped! (18:12:18F,,/4A,,/4C,/4F,/4A,/4C/4F/4C/4A,/4F,/4C,/4A,,/4F,,/4C,/4F,,/4C,/4F,,/4C,/4!ped-up!!ped! (18:12:18F,,/4C,/4F,/4A,/4C/4F/4[I:staff -1]^B/4[I:staff +1]F/4^D/4^B,/4F,/4^D,/4F,,/4C,/4F,,/4C,/4F,,/4!ped-up!C,/4 | %352
!ped! (18:12:18^B,,/4F,/4A,/4^B,/4[I:staff -1]F/4A/4^B/4A/4F/4[I:staff +1]B,/4A,/4F,/4B,,/4G,/4B,,/4G,/4B,,/4G,/4!ped-up!!ped! (18:12:18C,/4G,/4C/4[I:staff -1]E/4G/4c/4e/4c/4G/4E/4[I:staff +1]C/4G,/4^A,,/4=G,/4A,,/4G,/4A,,/4G,/4!ped-up! | %353
!ped! (18:12:18B,,/4E,/4G,/4B,/4E/4[I:staff -1]G/4B/4G/4E/4[I:staff +1]B,/4G,/4E,/4B,,/4E,/4B,,/4E,/4B,,/4!ped-up!E,/4!ped! (18:12:18B,,/4^D,/4F,/4A,/4^D/4F/4[I:staff -1]A/4[I:staff +1]F/4D/4A,/4F,/4D,/4B,,/4E,/4B,,/4E,/4B,,/4!ped-up!E,/4 | %354
!ped! (18:12:18B,,/4^D,/4F,/4A,/4^D/4F/4[I:staff -1]B/4[I:staff +1]F/4D/4A,/4F,/4D,/4B,,/4D,/4B,,/4D,/4B,,/4!ped-up!D,/4!ped! (18:12:18E,,/4B,,/4E,/4G,/4B,/4E/4G/4E/4B,/4G,/4E,/4B,,/4E,,/4B,,/4E,,/4B,,/4E,,/4!ped-up!B,,/4 | %355
!ped! (18:12:18C,/4G,/4C/4E/4[I:staff -1]G/4c/4e/4c/4G/4[I:staff +1]E/4C/4G,/4C,/4G,/4C,/4G,/4C,/4G,/4!ped-up!!ped! (18:12:18C,/4F,/4A,/4^B,/4F/4A/4[I:staff -1]e/4[I:staff +1]A/4F/4B,/4A,/4F,/4C,/4A,/4C,/4A,/4C,/4!ped-up!A,/4 | %356
!ped! (18:12:18C,/4G,/4C/4E/4[I:staff -1]G/4c/4e/4c/4G/4[I:staff +1]E/4C/4G,/4C,/4G,/4C,/4G,/4C,/4G,/4!ped-up!!ped! (18:12:18C,/4G,/4C/4E/4[I:staff -1]G/4c/4e/4c/4G/4[I:staff +1]E/4C/4G,/4C,/4G,/4C,/4G,/4C,/4G,/4!ped-up! | %357
!ped! (18:12:18C,/4G,/4C/4E/4[I:staff -1]G/4c/4e/4c/4G/4[I:staff +1]E/4C/4G,/4C,/4G,/4C,/4G,/4C,/4G,/4!ped-up!!ped! (18:12:18C,/4F,/4A,/4^B,/4F/4A/4[I:staff -1]e/4[I:staff +1]A/4F/4B,/4A,/4F,/4C,/4A,/4C,/4A,/4C,/4!ped-up!A,/4 | %358
!ped! (18:12:18C,/4G,/4C/4E/4G/4[I:staff -1]c/4e/4c/4[I:staff +1]G/4E/4C/4G,/4C,/4G,/4C,/4G,/4C,/4!ped-up!G,/4!ped! (6:4:12C,/4G,/4C/4E/4G/4[I:staff -1]c/4e/4c/4[I:staff +1]G/4E/4C/4G,/4 [B,,E,G,D]!ped-up! | %359
!ped! (9:6:9[A,,,C,,E,,A,,]/ .[A,,E,]/.[C,A,]/.[E,C]/.[A,E]/.[CA]/[I:staff -1].[Ec]/[I:staff +1] z/ z/!ped-up!!ped! [A,,,A,,][I:staff -1] [A,^DF^B][A,Ec]!ped-up! | %360
!ped![I:staff +1] (9:6:9[A,,,A,,]/ .[A,,E,]/.[C,A,]/.[E,C]/.[A,E]/[K:treble].[CA]/.[Ec]/ z/ z/!ped-up![K:bass]!ped! (9:6:9[A,,,A,,]/ .[A,,E,]/.[C,A,]/.[E,C]/.[A,E]/[K:treble].[CA]/.[Ec]/ z/ z/!ped-up! | %361
!ped! (9:6:9[E,,,E,,]/ .[A,,E,]/.[C,A,]/.[E,C]/.[A,E]/[K:treble].[CA]/.[Ec]/ z/ z/!ped-up![K:bass]!ff!!ped![I:staff -1] [EG][CA][EB]!ped-up! | %362
!ped![I:staff +1] (9:6:8[A,,,A,,]/ .[^B,,F,]/.[^D,A,]/.[E,^B,]/.[A,^D]/.[B,F]/ z z/[I:staff -1] [CA]2[I:staff +1] x!ped-up! | %363
!ped! (9:6:9[^A,,,^A,,]/ .[=G,,C,]/.[A,,E,]/.[C,G,]/.[=G,C]/.[^A,E]/.[C=G]/ z/ z/[K:treble] !>![EG^Ac]!>![EGAd]!>![EGAe]!ped-up! | %364
[K:bass]!ped! [B,,,B,,]B,, z2 [D,F,B,][D,,,D,,]!ped-up! | %365
!ped! z/ !^![E,E]/!^![F,F]/!^![G,G]/[I:staff -1]!^![A,A]/!^![B,B]/ !^![Cc]2[I:staff +1] [E,,,E,,]!ped-up! | %366
!ped! [A,,,E,,]/4A,,/4[A,,,E,,]/4A,,/4[A,,,E,,]/4A,,/4[A,,,E,,]/4A,,/4[A,,,E,,]/4A,,/4[A,,,E,,]/4A,,/4[A,,,E,,]/4A,,/4[A,,,E,,]/4A,,/4 (3[E,,,E,,]!ped-up![K:treble]!>![A,^B,^DFA]!>![A,CEA] | %367
[K:bass]!ped! !arpeggio!!fermata![A,,,E,,C,]6!ped-up! |] %368
V:3
 x4 | x4 | x4 | x4 | x4 | x4 | x4 | x4 | x4 | x4 | x4 | x4 | x4 | x4 | x4 | x4 | x4 | x4 | x4 | %19
 x4 |!8va(! x!8va)! x3 | x4 | x4 | x4 | x4 | x4 | x4 | x4 | x4 | x4 | x4 | x4 | x4 | x4 | x4 | x4 | %36
 [CF]2 [^^CG]2 | [DF]2 [EG]2 | z4 | x2 A2- | A2 ^^G2 | A2 F2 | F2 E2 | x4 | x4 | x4 | x4 | x4 | %48
 x4 | x4 | x4 | [EB] z z2 | [EB] x3 | [FA] x3 | E x3 | [EB] z z2 | [EB] x3 | [FA] x3 | E x3 | %59
 [CFA] x3 | [E^^c] x3 | [Fd] x3 | [F=A] x3 | [F=A] x3 | [EG] x3 | [FA] z c z | c x3 | C z C=E | %68
 C2 E2 | [CF]2 [^B,F]2 | x4 | [EB] z z2 | [EB] x3 | [FA] x3 | E x3 | [EB] z z2 | [EB] x3 | %77
 [FA] x3 | E x3 | [=GA] z x2 | [=GA] z x2 | x4 | x4 | x4 | x4 | x4 | x4 | x4 | x4 | x4 | x4 | x4 | %92
 x4 | x4 | x2[I:staff +1] C2 |[I:staff -1] z4 | x4 | x4 || %98
[M:9/8] z [CFA][CFA] z [FA][FA] z [FA][FA] | z [CFA][CFA] z [Ac][Ac] z [Ac][Ac] | %100
 z [Bc][Bc] z [Bc][Bc] z [Bc][Bc] | z [Ac][Ac] z [Ac][Ac] z [FAc][FAc] | %102
 z [FBd][FBd] [FBd][FBd][FBd] z [Gde][Gde] | z [G^^ce][Gce] [Gce][Gce][Gce] z [FAd][FAd] | %104
 z [Af][Af][Af][Af][Af][EB][EBc][EBc] | z [FA][FA][FA][FA][FA][FA][FA][FA] | %106
 z [CFA][CFA] z [FA][FA] z [FA][FA] | z [CFA][CFA] z [Ac][Ac] z [Ac][Ac] | %108
 z [Bc][Bc] z [Bc][Bc] z [Ac][Ac] | z [Ac][Ac] z [Ac][Ac] z [^^FAc][FAc] | %110
 z [Bdg][Bdg] z [Bdg][Bdg] z [Bd][Bd] | z [FAd][FAd] z [FA][FA] z F2 | %112
 z/ F/A/ z/ z z/ ^^F/c/ z2 z2 x/ | z [Ac][Ac][Ac][FAc][FAc][FAc][FAc][FAc] | %114
 z [FB=d][FBd][FBd][FBd][FBd] z [=GBd][GBd] | z [F=c=d][Fcd] z [cd][Fcd] z [=GBd][GBd] | %116
 z [FB=d][FBd] z [FBd][FBd] z [=GBd][GBd] | z [F=c=d][Fcd] z [cd][Fcd] z [Bd] z | %118
 z [B=d][Bd] z [Bd]2 z [Gc][Fc] | z [FGB][FB] [=EA][DG][D^^F] ED^F | x9 | %121
 z [FA][FA][FA][FA][FA][FA][FA][FA] | x9 | x9 |!8va(! x3/2!8va)! x15/2 | x9 | x9 | x9 | x9 | x9 | %130
 x9 | x9 | x4- xx{^Bccd} x3 | %133
x/4a/4c/4A/4c/4a/4c/4A/4c/4a/4c/4A/4x/4a/4c/4A/4c/4a/4c/4A/4c/4a/4c/4A/4d/4a/4d/4A/4d/4a/4d/4A/4c/4a/4c/4A/4 | %134
x/4a/4c/4A/4c/4a/4c/4A/4c/4a/4c/4A/4x/4a/4f/4A/4f/4a/4f/4A/4f/4a/4f/4A/4f/4c'/4f/4A/4f/4c'/4f/4A/4g/4c'/4g/4A/4 | %135
x/4c'/4f/4B/4f/4c'/4f/4B/4f/4c'/4f/4B/4x/4c'/4e/4B/4e/4c'/4e/4B/4e/4c'/4e/4B/4g/4c'/4g/4B/4g/4c'/4g/4B/4a/4c'/4a/4B/4 | %136
x/4c'/4g/4A/4g/4c'/4g/4A/4g/4c'/4g/4A/4x/4c'/4f/4A/4f/4c'/4f/4A/4f/4c'/4f/4A/4x/4c'/4f/4A/4f/4c'/4f/4A/4f/4c'/4f/4A/4 | %137
x/4d'/4f/4B/4f/4d'/4f/4B/4f/4d'/4f/4B/4x/4d'/4f/4B/4f/4d'/4f/4B/4f/4d'/4f/4B/4x/4d'/4g/4B/4g/4d'/4g/4B/4g/4d'/4g/4B/4 | %138
x/4^^c'/4a/4A/4a/4c'/4a/4A/4a/4c'/4a/4A/4a/4c'/4a/4A/4a/4c'/4a/4A/4g/4c'/4g/4A/4x/4d'/4f/4A/4f/4d'/4f/4A/4f/4d'/4f/4A/4 | %139
x/4c'/4f/4A/4f/4c'/4f/4A/4f/4c'/4f/4A/4x/4c'/4f/4A/4e/4c'/4e/4A/4f/4c'/4f/4A/4x/4c'/4g/4A/4x/4c'/4a/4A/4g/4c'/4g/4B/4 | %140
x/4c'/4f/4A/4f/4c'/4f/4A/4f/4c'/4f/4A/4f/4c'/4f/4A/4f/4c'/4f/4A/4f/4c'/4f/4A/4f/4c'/4f/4A/4f/4c'/4f/4A/4f/4c'/4f/4A/4 | %141
x/4=d'/4f/4B/4f/4d'/4f/4B/4f/4d'/4f/4B/4f/4d'/4f/4B/4"_cresc."f/4d'/4f/4B/4f/4d'/4f/4B/4x/4d'/4=g/4B/4g/4d'/4g/4B/4g/4d'/4g/4B/4 | %142
x/4=d'/4=a/4=c/4a/4d'/4a/4c/4a/4d'/4a/4c/4b/4d'/4b/4B/4b/4d'/4b/4B/4a/4d'/4a/4B/4x/4d'/4=g/4B/4g/4d'/4g/4B/4g/4d'/4g/4B/4 | %143
x/4=d'/4f/4B/4f/4d'/4f/4B/4f/4d'/4f/4B/4f/4d'/4f/4B/4"_cresc."f/4d'/4f/4B/4f/4d'/4f/4B/4x/4d'/4=g/4B/4g/4d'/4g/4B/4g/4d'/4g/4B/4 | %144
x/4=d'/4=a/4=c/4a/4d'/4a/4c/4a/4d'/4a/4c/4b/4d'/4b/4B/4b/4d'/4b/4B/4a/4d'/4a/4B/4x/4d'/4=g/4B/4g/4d'/4g/4B/4g/4d'/4g/4B/4 | %145
 x9 | %146
x/4a/4e/4A/4x/4a/4f/4A/4x/4a/4g/4A/4x/4a/4f/4A/4f/4a/4f/4A/4f/4a/4f/4A/4c/4a/4c/4A/4c/4a/4c/4A/4^^c/4a/4c/4A/4 | %147
x/4a/4d/4A/4d/4a/4d/4A/4d/4a/4d/4A/4d/4g/4d/4G/4d/4g/4d/4G/4d/4a/4d/4A/4x/4b/4c/4B/4c/4a/4c/4B/4c/4g/4c/4G/4 | %148
 x5/2!8va(! x5/4!8va)! x21/4 | x13/4!8va(! x5/4!8va)! x9/2 | x13/4!8va(! x5/4!8va)! x9/2 | x9 || %152
[K:A][M:4/4] x8 | x4!8va(! x2!8va)! x2 | x8 | x8 | x8 | x4!8va(! x4!8va)! | x8 | %159
 x2!8va(! x2!8va)! x4 | x6!8va(! x2!8va)! | x8 | x2!8va(! x2!8va)! x4 | x8 | x8 | x8 | x8 | x8 | %168
 x8 | x8 | x8 | x8 | x8 | x8 | x8 | x8 | x8 | x8 | x8 | x8 | x8 | x11/2 C2 x/ | %182
x/4C/4^B,/4C/4D/4^D/4E/4^E/4F/4A,/4C/4G/4F/4A/4c/4g/4f/4a/4c'/4!p!a'/4f'/4c'/4a/4f/4c/4a/4f/4c/4A/4F/4C/4G/4 | %183
x/4C/4^B,/4C/4D/4^D/4E/4^E/4F/4A,/4C/4G/4F/4A/4c/4g/4f/4a/4c'/4a'/4f'/4c'/4a/4f/4c/4a/4f/4c/4A/4F/4C/4B,/4 | %184
 c/4G/4^^F/4G/4A/4^A/4B/4^B/4c/4^E/4=B/4d/4c/4^e/4b/4d'/4c'/4^e'/4b'/4d''/4c''/4b'/4e'/4d'/4c'/4b/4e/4d/4c/4B/4E/4G/4 | %185
x/4C/4^B,/4C/4D/4^D/4E/4^E/4F/4A,/4C/4G/4F/4A/4c/4g/4f/4a/4c'/4!p!a'/4f'/4c'/4a/4f/4c/4a/4f/4c/4A/4F/4C/4G/4 | %186
x/4C/4^B,/4C/4D/4^D/4E/4^E/4F/4A,/4C/4G/4F/4A/4c/4g/4f/4a/4c'/4a'/4f'/4c'/4a/4f/4c/4a/4f/4c/4A/4F/4C/4B,/4 | %187
x/4G/4^^F/4G/4A/4^A/4B/4^B/4c/4E/4G/4^d/4c/4e/4g/4^d'/4c'/4e'/4g'/4^d''/4c''/4g'/4e'/4d'/4c'/4g/4e/4d/4c/4G/4E/4[Cc]/4 | %188
x/4^D/4^^C/4D/4E/4^E/4F/4^^F/4G/4^B,/4^F/4A/4G/4^B/4f/4a/4 (8:6:8g/8^b/8f'/8a'/8g'/8f'/8b/8a/8(7:6:7g/8f/8^B/8c/8d/8^d/8e/8(7:6:7^e/8^^f/8g/8a/8^a/8=b/8^b/8(7:6:7c'/8d'/8^d'/8e'/8^e'/8f'/8^^f'/8(5:4:5g'/4a'/4^a'/4b'/4^b'/4 | %189
 x9/4!8va(! x7/4!8va)! x4 | %190
 e/4E/4=F/4^F/4^^F/4G/4^A/4B/4E/4B/4d/4e/4b/4d'/4e'/4b'/4e''/4d''/4b'/4e'/4d'/4b/4e/4B/4 x2 | %191
x/4E/4^D/4E/4=F/4^F/4^^F/4G/4A/4E/4A/4B/4c/4e/4a/4b/4d'/4a'/4e'/4c'/4a/4e/4c/4A/4 x2 | %192
x/4^E/4B/4d/4c/4^e/4b/4d'/4c'/4^e'/4b'/4d''/4c''/4a'/4e/4d'/4c'/4b/4e/4d/4c/4B/4E/4G/4 x2 | %193
x/4C/4^B,/4C/4D/4^D/4E/4^E/4F/4A,/4C/4F/4A/4c/4f/4a/4c'/4a'/4f'/4c'/4a/4f/4c/4F/4 x2 | %194
 (53:32:50Gc''/4^b'/4d''/4c''/4=b'/4a'/4g'/4f'/4^e'/4f'/4g'/4f'/4a'/4g'/4f'/4=e'/4d'/4c'/4^b/4c'/4d'/4c'/4=b/4a/4g/4f/4g/4f/4^e/4f/4^^f/4g/4a/4^a/4b/4^b/4c'/4d'/4^d'/4e'/4^e'/4f'/4^^f'/4g'/4a'/4^a'/4b'/4^b'/4c''/4 | %195
 (53:32:50Ad''/4c''/4e''/4d''/4c''/4b'/4a'/4g'/4^^f'/4g'/4a'/4g'/4b'/4a'/4g'/4^f'/4e'/4d'/4e'/4f'/4e'/4d'/4c'/4b/4a/4g/4a/4g/4^^f/4g/4a/4^a/4b/4^b/4c'/4d'/4^d'/4e'/4^e'/4f'/4^^f'/4g'/4a'/4^a'/4b'/4^b'/4c''/4d''/4^d''/4 | %196
 x2!8va(! x18/5!8va)! x12/5 | x8 | x8 | x8 | x8 | x8 | x8 | x8 || %204
[K:F#] z3/2 [cc']<[ff'][gg']/ [aa']>[gg'] [ff']3/2 z/ | %205
 z3/2 [cc']<[ff'][gg']/ [aa']>[gg'] [ff']3/2 z/ | %206
 z3/2 [gg']<[aa'][bb']/ [c'c''][bb']/4[aa']/4[gg']/4 z/4 x3/2 z/ | %207
 z3/2 [bb']<[aa'][gg']/ [aa'] x5/2 z/ | z3/2 [^^f^^f']<[gg'][aa']/ [c'c'']3/2 x5/2 | %209
 z3/2 [dd']<[ee'][^^f^^f']/ [gg']3/2 x5/2 | z3/2 [gg']<[^^f^^f'][gg']/ [c'c'']3/2 x5/2 | %211
 z3/2 [cc']<[dd'][ee']/ [ff']3/2 x5/2 | z2 [^^f^^f']>[ff'] [gg']3/2 x5/2 | %213
 z [c'c''][bb'][aa'] [c'c'']/[aa']/[bb']/[gg']/ [ff'] x | z2 [^^f^^f']>[ff'] [gg']3/2 x5/2 | %215
 z [c'c''][bb'][aa'] [gg'][aa'][bb'][gg'] | x2!8va(! x2!8va)! x4 | %217
 (6:4:6z/ [^b^b']/[c'c'']/[d'd'']/[c'c'']/[=b=b']/ (6:4:6[aa']/[^^g^^g']/[aa']/[bb']/[aa']/[^g^g']/ (6:4:6[ff']/[ee']/[ff']/[gg']/[ff']/[ee']/ (6:4:6[dd']/[cc']/[Bb]/[Aa]/[Gg]/[^^F^^f]/ | %218
 (6:4:6z/ [^^f^^f']/[gg']/[aa']/[gg']/[^f^f']/ (6:4:6[ee']/[bb']/[gg']/[ee']/[=d=d']/[Bb]/ (6:4:6[cc']/[^d^d']/[^^d^^d']/[ee']/[ff']/[^^f^^f']/ (6:4:6[gg']/[^^g^^g']/[aa']/[bb']/[^b^b']/[c'c'']/ | %219
 (6:4:6z/ [^b^b']/[c'c'']/[d'd'']/[c'c'']/[=b=b']/ (6:4:6[aa']/[^^g^^g']/[aa']/[bb']/[aa']/[^g^g']/ (6:4:6[ff']/[ee']/[ff']/[gg']/[ff']/[ee']/ (6:4:6[dd']/[cc']/[Bb]/[Aa]/[Gg]/[^^F^^f]/ | %220
 (6:4:6z/ [^^f^^f']/[gg']/[aa']/[gg']/[^f^f']/ (6:4:6[ee']/[bb']/[gg']/[ee']/[=d=d']/[Bb]/ (6:4:6[cc']/[^d^d']/[^^d^^d']/[ee']/[ff']/[^^f^^f']/ (6:4:6[gg']/[^^g^^g']/[aa']/[bb']/[^b^b']/[c'c'']/ | %221
 (6:4:6z/ [=e'=e'']/[d'd'']/[c'c'']/[bb']/[aa']/ (6:4:6[=a=a']/[gg']/[=g=g']/[ff']/[e^e']/[=e=e']/ (6:4:6[dd']/[ee']/[^e^e']/[ff']/[^^f^^f']/[^g^g']/ (6:4:6[^a^a']/[bb']/[^b^b']/[c'c'']/[^^c'^^c'']/[d'd'']/ | %222
 x!8va(! x/!8va)! x13/2 | x8 | x8 | x8 | x8 |!8va(! x2!8va)! x371/64 | x4!8va(! x!8va)! x3 || %229
[M:3/4]!8va(! x6 | x6 | x6!8va)! | x6 | x6 | z [CFA][CFA][CF]EE | DD DD G,G, | x!8va(! x5 | x6 | %238
 x2!8va)! x4 | x6 | x6 | z [=D=G_B][DGB][DG]FF | _EE[E=G][EG][=C=D][CD] | x6 | x6 | x6 | x6 | x6 | %248
 x6 | x6 | x6 ||[K:C] x6 | x6 | x6 | x6 | x6 | x6 | x6 | x6 | x6 | x6 | x6 | x6 | x6 | x6 | x6 | %266
 x6 | x6 | x6 | x6 | x6 | x6 | x6 | x6 | x4!8va(! x!8va)! x | x4!8va(! x2!8va)! | x6 | x6 | x6 | %279
 x4!8va(! x!8va)! x | x4!8va(! x2 | x!8va)! x199/40 | x6 | x6 | x6 | x4!8va(! x!8va)! x | %286
 x4!8va(! x2 | x!8va)! x5 | x6 | x6 | x4!8va(! x!8va)! x | x4!8va(! x2 | x!8va)! x5 | x6 | %294
 .[EA].[EA].[EA].[^CEA].[CEA] z ||[K:A] z [Ac][Ac][Ac] z [Ac] | z [Ad][Ad][Ad] z [EF^A] | %297
 z [DFB][DFB][DFB] z [DF] | z [DG][DG][DG] z [CF] | z [DF] z [CF] z [^B,F] | %300
 z [^B,F] z [=B,D] [A,D][G,D] | z [Ac][Ac][Ac] z [Ac] | z [Ad][Ad][Ad] z [EF^A] | %303
 z [DFB][DFB][DFB] z [DF] | z [DG][DG][DG] z [CF] | z [CE][CE][CE] z [CE] | z [^DF] z [DF] z [DF] | %307
 z [EG] z [Gc] z [Ac] | z [Ac][Ac][Ac] z [Ac] | x6 | x6 | x6 | x6 | x6 | x6 | x6 | x6 | %317
 x/!8va(! x7/2!8va)! x2 | x6 | x6 | x6 | z .F.G.A.B.c | d/e/d/c/ Bd c/d/c/B/ | x4!8va(! x2!8va)! | %324
 x6 | x6 | x6 | x6 | x6 | x6 | x6 | x6 | x6 | x6 | x6 | x6 | x6 | x6 | x6 | ^e6 | ^e2 ^^d2 e2 | %341
 g6 | ^e2 z4 | e6 | e2 ^d2 e2 | g6 | e2 x4 ||[M:6/8] [Ac]3 A^BA | [ce]3 [Ac]3 | %349
 [EA]3 [DB][CA][DB] | [^D^B]2 [Ec] [EA]3 | [Ac]3 A^BA | [A^d]3 [ce]2 [=Gc] | GBE ^DAD | %354
 ^D2 (6:4:3A[DG]/4[B,F]/4 E2 x | c3 ^ded | c2 [^^F^^f] [Gg]3 | c3 ^ded | ce^d ce=d | [CEA]3 [Ec]3 | %360
 [Ece]3 [EA]3 | [A,CE]3 x3 | [^D^B]2 [Ec]!8va(! x4/3!8va)! x5/3 | %363
 [E=G]3 x/3!8va(! x4/3!8va)! x4/3 | [EFBe]2 x/3!8va(! x4/3!8va)! x7/3 | %365
 [A,CEA]/ x3/2!8va(! x4/3!8va)! x2/3 z [DB] | z6!8va(! | x6!8va)! |] %368
V:4
 x4 | x4 | x4 | x4 | x4 | x4 | x4 | x4 | x4 | x4 | x4 | x4 | x4 | x4 | x4 | x4 | x4 | x4 | x4 | %19
 x4 | x4 | x4 | x4 | x4 | x4 | x4 | x4 | x4 | x4 | x4 | x4 | x4 | x4 | x4 | x4 | x4 | x4 | x4 | %38
 x4 | x4 | x4 | x4 | x4 | x4 | x4 | x4 | x4 | x4 | x4 | x4 | x4 | x4 | x4 | x4 | x4 | x4 | x4 | %57
 x4 | x4 | x4 | x4 | x4 | x4 | x4 | x4 | x4 | x4 | A,,4 | (^B,,2 C,2) | x4 | x4 | x4 | x4 | x4 | %74
 x4 | x4 | x4 | x4 | x4 | x4 | x4 | x4 | x2[K:treble] x2 |[K:bass] x4 | x4 | x4 | x2[K:treble] x2 | %87
[K:bass] x4 | x4 | x4 | x4 | x4 | x4 | x4 | x4 | x4 | x4 | x4 ||[M:9/8] x9 | x9 | x9 | x9 | x9 | %103
 x9 | x9 | x9 | x9 | x9 | x9 | x9 | x9 | x9 | x3 C,3 C,2 [C,E] | x9 | x9 | x9 | x9 | x9 | x9 | %119
 x B,,2- B,,3- B,,2 ^B,, | x9 | x9 | x9 | x9 | x9 | x9 | x9 | x9 | x9 | x9 | x33/4[K:treble] x3/4 | %131
 x9/4[K:bass] x6[K:treble] x3/4 | x9 |[K:bass] x9 | x9 | x9 | x9 | x9 | x9 | x9 | x9 | x9 | x9 | %143
 x9 | x9 | x7 E,2 | x9 | x7 C,2 | x9 | x9 | x9 | x9 || %152
[K:A][M:4/4] [F,,A,,C,] z [F,,A,,C,] z [F,,A,,C,] z z2 | z z [B,,F,G,] z [B,,F,G,] z [B,,F,G,] z | %154
 z z [C,G,B,] z"_dim." [C,G,B,] z [C,G,B,] z | z z [D,F,] z D, z z2 | z z [A,,C,] z [A,,C,] z z2 | %157
 z z [G,,D,F,] z [G,,D,F,] z [G,,D,F,] z | z z [G,,D,F,] z [G,,D,F,] z [G,,D,F,] z | %159
 z z [C,^E,G,] z [A,,=E,] z [E,A,] z | [G,,C,^E,] z [C,E,] z [F,,C,] z [C,F,] z | %161
 [C,^E,] z [C,E,] z [A,,C,] z [A,,C,] z | [G,,B,,C,] z [G,,B,,C,] z [F,,A,,C,] z [F,,A,,C,] z | %163
 C,,2 z2 B,,4 | A,,4 [G,,C,]4 | x8 | %166
 z [F,,A,,]/4C,/4[F,,A,,]/4C,/4 [F,,A,,][F,,A,,]/4C,/4[F,,A,,]/4C,/4 [F,,A,,] z z2 | %167
 z [F,,A,,]/4C,/4[F,,A,,]/4C,/4 [F,,A,,][F,,A,,]/4C,/4[F,,A,,]/4C,/4 [F,,A,,] z z2 | %168
 z [C,,G,,]/4B,,/4[C,,G,,]/4B,,/4 [C,,G,,]/[C,,G,,]/4B,,/4[C,,G,,]/4 z/4 z/ z z z2 | %169
 z [F,,A,,]/4C,/4[F,,A,,]/4C,/4 [F,,A,,][F,,A,,]/4C,/4[F,,A,,]/4C,/4 [F,,A,,] z z2 | %170
 z [F,,A,,]/4C,/4[F,,A,,]/4C,/4 [F,,A,,][F,,A,,]/4C,/4[F,,A,,]/4C,/4 [F,,A,,] z z2 | %171
 z [G,,C,]/4E,/4[G,,C,]/4E,/4 [G,,C,][G,,C,]/4E,/4[G,,C,]/4E,/4 [G,,C,] z z2 | %172
 z!>(! [G,,C,^D,]/4F,/4[G,,C,D,]/4F,/4 [G,,C,D,][G,,C,D,]/4F,/4[G,,C,D,]/4F,/4!>)! [G,,^B,,D,] z z2 | %173
 z [C,,G,,]/4E,/4[C,,G,,]/4E,/4 [C,,G,,][C,,G,,]/4E,/4[C,,G,,]/4E,/4 [C,,G,,] z z2 | %174
 z [G,,D,]/4E,/4[G,,D,]/4E,/4 [G,,D,]/!>(![G,,D,]/4E,/4[G,,D,]/4 z/4 z/!>)! z z z2 | %175
 z A,,/4E,/4A,,/4E,/4 A,,A,,/4!>(!E,/4A,,/4E,/4 [A,,C,E,]!>)! z z2 | %176
 z [^E,,B,,]/4C,/4[E,,B,,]/4C,/4 [E,,B,,][E,,B,,]/4!>(!C,/4[E,,B,,]/4 z/4 z!>)! z z2 | %177
 z F,,/4C,/4F,,/4C,/4 F,,[F,,A,,]/4!>(!C,/4[F,,A,,]/4 z/4 z!>)! z z2 | %178
 z A,,/4C,/4A,,/4C,/4 A,,A,,/4C,/4A,,/4C,/4 [A,,C,] z z2 | %179
 z B,,/4D,/4B,,/4D,/4 B,,B,,/4D,/4B,,/4D,/4 [B,,D,] z z2 | %180
 z!>(! [C,,C,]/4A,/4[C,F,]/4A,/4 [C,F,][C,F,]/4A,/4[C,F,]/4A,/4!>)! [C,,B,,^E,] z z2 | %181
 z [F,,A,,]/4C,/4[F,,A,,]/4C,/4 [F,,A,,][F,,A,,]/4C,/4[F,,A,,]/4C,/4 [F,,A,,] z z2 | x8 | x8 | x8 | %185
 x8 | x8 | x8 | x193/24 | !>!C2 x6 | x8 | x8 | x8 | x8 | x8 | x4 [B,,,B,,] z z2 | %196
 x5/2[K:treble] x37/10[K:bass] x9/5 | !^!C,,2 !^!C,,2 x4 | [B,D]7/2 [A,C]/ [G,B,]2 z2 | %199
 !^!C,,2 !^!C,,2 x4 | [A,C]7/2 [G,B,]/ [F,A,]2 z2 | !^!C,,2 !^!C,,2 x4 | %202
 [G,B,]7/2 [F,A,]/ [^E,G,]2 z2 | [G,B,]7/2 [F,A,]/ [^E,G,] z x2 ||[K:F#] x8 | x8 | x8 | x8 | x8 | %209
 x8 | x8 | x8 | x8 | x8 | x8 | x8 | x8 | x8 | x8 | x8 | x8 | x8 | x8 | x8 | x8 | [F,,,F,,]2 x6 | %226
 x8 | x8 | x4[K:treble] x4 ||[M:3/4] x5[K:treble] x | x6 | x6 | x6 | x6 | x6 | x6 | %236
 x5[K:treble] x | x6 | x6 | x5[K:bass] x | x6 | x6 | x6 | x3[K:treble] x2[K:bass] x | x6 | %245
 x3[K:treble] x2[K:bass] x | x6 | x3[K:treble] x2[K:bass] x | x6 | x3[K:treble] x2[K:bass] x | %250
 x6 ||[K:C] x6 | x6 | x6 | x6 | x6 | x6 | x6 | x6 | x6 | x6 | x6 | x6 | x6 | x6 | x6 | x6 | x6 | %268
 x6 | x6 | x6 | x6 | x6 | x6 | x6 | x6 | x6 | x6 | x6 | x6 | x6 | x239/40 | x6 | x6 | x6 | x6 | %286
 x6 | x6 | x6 | x6 | x6 | x6 | x6 | x6 | x6 ||[K:A] x6 | x6 | x6 | x6 | x6 | ^D,2 x2 E,,2 | x6 | %302
 x6 | x6 | x6 | x6 | G,,2- G,, z z2 | x[K:treble] x5 | x6 |[K:bass] x6 | x6 | x6 | x6 | x6 | x6 | %315
 x6 | x6 | z .C,.^D,.E,.F,.G, | A,/B,/A,/G,/ .F,.A,.G,.G,, | x[K:treble] x5 | x5[K:bass] x | x6 | %322
 x6 | x[K:treble] x5 |[K:bass] x6 | x6 | x6 | x6 | x6 | x6 | x6 | x6 | x6 | x6 | x6 | x6 | x6 | %337
 x6 | x6 | [C,G,] .C,.^D,.^E,.F,.^^F, | [C,G,]/^A,/G,/^^F,/ G,4 | z .C,.^D,.^E,.F,.^^F, | %342
 G,/^A,/G,/^^F,/ G, z z2 | [C,G,] .C,.^D,.E,.F,.^^F, | [C,G,]/A,/G,/^^F,/ G,4 | %345
 z .C,.^D,.E,.F,.^^F, | G,/A,/G,/^^F,/ G,2 x2 ||[M:6/8] x6 | x6 | x6 | x6 | x6 | x6 | x6 | x6 | %355
 x6 | x6 | x6 | x6 | x4 z z | x5/3[K:treble] x4/3[K:bass] x5/3[K:treble] x4/3 | %361
 x5/3[K:treble] x4/3[K:bass] [E,,,E,,] z z | x4 [A,,E,][E,C] | x3[K:treble] x3 | %364
[K:bass] x2[I:staff -1] [F^d][F=d] x2 |[I:staff +1] [E,,,E,,]/ z/ z z z [E,A,CE] x | %366
 x14/3[K:treble] x4/3 |[K:bass] x6 |] %368

